(File created: Wednesday December 10 2025 - 08:24 AM)
(for Carvera from Vectric)
(VECTRIC POST REVISION)
(AA6001CAC4E9696A3EC4F9B49CBCFB6D)
G90G54
G17
G21

T1M6
G0Z20.320
G0X0.000Y0.000
S10000M3
G0X63.460Y0.001
G0Z5.080
G1Z-1.000F300.0
G1X0.040F1000.0
X0.004Y0.004
X0.000Y0.058
Y2.224
X63.500
Y4.446
X0.000
Y6.669
X63.500
Y8.891
X0.000
Y11.114
X63.500
Y13.336
X0.000
Y15.559
X63.500
Y17.781
X0.000
Y20.004
X63.500
Y22.226
X0.000
Y24.449
X63.500
Y26.671
X0.000
Y28.894
X63.500
Y31.116
X0.000
Y33.339
X63.500
Y35.561
X0.000
Y37.784
X63.500
Y40.006
X0.000
Y42.229
X63.500
Y44.451
X0.000
Y46.674
X63.500
Y48.896
X0.000
Y51.119
X63.500
Y53.341
X0.000
Y55.564
X56.344
X56.322Y55.596
X56.172Y55.822
X56.053Y55.993
X55.958Y56.178
X55.882Y56.328
X55.807Y56.479
X55.732Y56.629
X55.657Y56.779
X55.582Y56.930
X55.507Y57.080
X55.431Y57.230
X55.356Y57.380
X55.281Y57.531
X55.182Y57.741
X55.168Y57.786
X0.000
Y60.009
X55.089
X55.113Y60.169
X55.182Y60.392
X55.281Y60.602
X55.377Y60.787
X55.496Y60.958
X55.646Y61.184
X55.796Y61.409
X55.917Y61.597
X56.065Y61.767
X56.235Y61.915
X56.423Y62.036
X56.608Y62.163
X56.746Y62.231
X0.000
Y64.454
X59.974
X60.126Y64.559
X60.311Y64.655
X60.461Y64.730
X60.654Y64.823
X60.858Y64.889
X61.045Y64.954
X61.240Y64.995
X61.438Y65.012
X61.677Y65.069
X61.922Y65.088
X62.416
X62.655Y65.144
X62.899Y65.163
X63.500
Y66.676
X0.000
Y68.899
X63.500
Y71.121
X0.000
Y73.344
X63.500
Y75.566
X0.000
Y77.789
X63.500
Y80.011
X0.000
Y82.234
X63.500
Y84.456
X0.000
Y86.678
X63.500
Y88.842
X63.496Y88.896
X63.460Y88.899
X0.040
G0Z5.080
G0X0.058Y88.900
G1Z-1.000F300.0
G1X0.004Y88.896F1000.0
X0.000Y88.842
Y0.058
X0.004Y0.004
X0.058Y0.000
X63.442
X63.496Y0.004
X63.500Y0.058
Y54.248
X63.457Y54.229
X63.307Y54.154
G2X62.523Y53.947I-0.784J1.380
G1X61.546
X61.208Y53.983
X61.103Y53.964
X60.802Y53.889
X60.502Y53.814
G2X59.968Y53.721I-0.533J1.495
G1X58.991
G2X58.378Y53.845I0.000J1.587
G1X57.982Y54.004
X57.831Y54.079
G2X57.369Y54.386I0.634J1.455
G2X57.005Y54.675I0.796J1.374
G2X56.716Y55.039I1.084J1.159
G1X56.473Y55.371
X56.322Y55.596
X56.172Y55.822
X55.958Y56.178
X55.882Y56.328
X55.807Y56.479
X55.732Y56.629
X55.657Y56.779
X55.582Y56.930
X55.507Y57.080
X55.431Y57.230
X55.356Y57.380
X55.281Y57.531
G2X55.079Y58.194I1.380J0.784
G2X54.999Y58.691I1.508J0.497
G1Y59.442
G2X55.079Y59.939I1.587J0.000
G2X55.281Y60.602I1.583J-0.121
G1X55.496Y60.958
X55.646Y61.184
X55.796Y61.409
G2X56.423Y62.036I1.391J-0.765
G2X57.025Y62.334I0.990J-1.241
G1X57.406Y62.440
X57.706Y62.515
G2X58.240Y62.608I0.533J-1.495
G1X58.283
X58.295Y62.611
X58.351Y62.687
X58.362Y62.706
X58.577Y63.062
X58.820Y63.394
G2X59.109Y63.758I1.374J-0.796
G1X59.184Y63.833
G2X59.548Y64.122I1.159J-1.084
G1X59.560Y64.133
G2X59.955Y64.440I1.159J-1.084
G1X60.311Y64.655
X60.461Y64.730
X60.858Y64.889
G2X61.438Y65.012I0.613J-1.464
G2X61.922Y65.088I0.484J-1.512
G1X62.416
G2X62.899Y65.163I0.483J-1.512
G1X63.500
Y88.842
X63.496Y88.896
X63.442Y88.900
X0.058
G0Z5.080
G0X63.460Y0.001
G1Z-2.000F300.0
G1X0.040F1000.0
X0.004Y0.004
X0.000Y0.058
Y2.224
X63.500
Y4.446
X0.000
Y6.669
X63.500
Y8.891
X0.000
Y11.114
X63.500
Y13.336
X0.000
Y15.559
X63.500
Y17.781
X0.000
Y20.004
X63.500
Y22.226
X0.000
Y24.449
X63.500
Y26.671
X0.000
Y28.894
X63.500
Y31.116
X0.000
Y33.339
X63.500
Y35.561
X0.000
Y37.784
X63.500
Y40.006
X0.000
Y42.229
X63.500
Y44.451
X0.000
Y46.674
X63.500
Y48.896
X0.000
Y51.119
X63.500
Y52.820
X60.826
X60.577Y52.762
X60.431Y52.717
X60.233Y52.649
X60.027Y52.608
X59.818Y52.594
X59.699
X59.461Y52.538
X59.217Y52.519
X58.841
X58.673Y52.528
X58.506Y52.555
X58.344Y52.599
X58.176Y52.621
X58.011Y52.660
X57.852Y52.717
X57.648Y52.784
X57.456Y52.876
X57.305Y52.952
X57.155Y53.027
X57.005Y53.102
X56.819Y53.197
X56.648Y53.316
X56.608Y53.341
X0.000
Y55.564
X54.912
X54.905Y55.577
X54.895Y55.596
X54.744Y55.822
X54.625Y55.993
X54.530Y56.178
X54.519Y56.197
X54.369Y56.423
X54.218Y56.648
X54.092Y56.831
X53.993Y57.031
X53.922Y57.242
X53.833Y57.429
X53.769Y57.626
X53.715Y57.786
X0.000
Y60.009
X53.829
X53.845Y60.055
X53.920Y60.281
X53.986Y60.484
X54.079Y60.677
X54.154Y60.827
X54.250Y61.013
X54.369Y61.184
X54.379Y61.203
X54.475Y61.388
X54.594Y61.559
X54.682Y61.701
X54.785Y61.834
X54.901Y61.954
X54.976Y62.029
X55.051Y62.104
X55.126Y62.180
X55.178Y62.231
X0.000
Y64.454
X58.536
X58.604Y64.517
X58.797Y64.648
X58.938Y64.768
X59.094Y64.872
X59.259Y64.955
X59.409Y65.031
X59.560Y65.106
X59.710Y65.181
X59.860Y65.256
X60.011Y65.331
X60.199Y65.422
X60.398Y65.488
X60.585Y65.577
X60.783Y65.641
X60.969Y65.705
X61.163Y65.747
X61.309Y65.791
X61.534Y65.866
X61.592Y65.889
X61.814Y66.008
X61.964Y66.083
X62.115Y66.158
X62.303Y66.249
X62.502Y66.315
X62.683Y66.401
X62.875Y66.464
X63.074Y66.503
X63.275Y66.515
X63.500
Y66.676
X0.000
Y68.899
X63.500
Y71.121
X0.000
Y73.344
X63.500
Y75.566
X0.000
Y77.789
X63.500
Y80.011
X0.000
Y82.234
X63.500
Y84.456
X0.000
Y86.678
X63.500
Y88.842
X63.496Y88.896
X63.460Y88.899
X0.040
G0Z5.080
G0X0.058Y88.900
G1Z-2.000F300.0
G1X0.004Y88.896F1000.0
X0.000Y88.842
Y0.058
X0.004Y0.004
X0.058Y0.000
X63.442
X63.496Y0.004
X63.500Y0.058
Y52.820
X60.826
X60.577Y52.762
X60.431Y52.717
G2X59.818Y52.594I-0.613J1.464
G1X59.699
G2X59.217Y52.519I-0.483J1.512
G1X58.841
G2X58.344Y52.599I0.000J1.587
G2X57.852Y52.717I0.121J1.583
G1X57.456Y52.876
X57.305Y52.952
X57.155Y53.027
X57.005Y53.102
X56.648Y53.316
G2X56.254Y53.623I0.765J1.391
G1X56.178Y53.699
X56.103Y53.774
X56.028Y53.849
X55.953Y53.924
X55.878Y53.999
G2X55.571Y54.394I1.084J1.159
G1X55.421Y54.619
X55.206Y54.976
X55.131Y55.126
X55.056Y55.276
X54.981Y55.427
X54.905Y55.577
X54.895Y55.596
X54.744Y55.822
X54.530Y56.178
X54.519Y56.197
X54.369Y56.423
X54.218Y56.648
G2X53.922Y57.242I1.241J0.990
G1X53.769Y57.626
G2X53.646Y58.240I1.464J0.613
G1Y59.217
G2X53.769Y59.830I1.587J0.000
G1X53.845Y60.055
X53.920Y60.281
X54.079Y60.677
X54.154Y60.827
X54.369Y61.184
X54.379Y61.203
X54.594Y61.559
G2X54.901Y61.954I1.391J-0.765
G1X54.976Y62.029
X55.051Y62.104
X55.126Y62.180
X55.201Y62.255
X55.277Y62.330
X55.352Y62.405
X55.427Y62.480
G2X55.953Y62.851I1.159J-1.084
G1X56.103Y62.926
G2X56.654Y63.116I0.784J-1.380
G1X56.800Y63.161
X57.025Y63.236
X57.406Y63.342
X57.542Y63.384
X57.681Y63.532
X57.756Y63.607
X57.832Y63.683
X57.907Y63.758
X57.982Y63.833
X57.993Y63.845
G2X58.283Y64.209I1.374J-0.796
G1X58.358Y64.284
X58.433Y64.359
G2X58.797Y64.648I1.159J-1.084
G2X59.259Y64.955I1.096J-1.148
G1X59.409Y65.031
X59.560Y65.106
X59.710Y65.181
X59.860Y65.256
X60.011Y65.331
X60.398Y65.488
X60.783Y65.641
X61.163Y65.747
X61.309Y65.791
X61.534Y65.866
X61.592Y65.889
X61.814Y66.008
X61.964Y66.083
X62.115Y66.158
X62.502Y66.315
G2X63.275Y66.515I0.773J-1.387
G1X63.500
Y88.842
X63.496Y88.896
X63.442Y88.900
X0.058
G0Z5.080
G0X63.460Y0.001
G1Z-3.000F300.0
G1X0.040F1000.0
X0.004Y0.004
X0.000Y0.058
Y2.224
X63.500
Y4.446
X0.000
Y6.669
X63.500
Y8.891
X0.000
Y11.114
X63.500
Y13.336
X0.000
Y15.559
X63.500
Y17.781
X0.000
Y20.004
X63.500
Y22.226
X0.000
Y24.449
X63.500
Y26.671
X0.000
Y28.894
X63.500
Y31.116
X0.000
Y33.339
X63.500
Y35.561
X0.000
Y37.784
X63.500
Y40.006
X0.000
Y42.229
X63.500
Y44.451
X0.000
Y46.674
X63.500
Y48.896
X0.000
Y51.119
X61.098
X61.050Y51.171
X60.762Y51.298
X60.612Y51.374
X60.461Y51.449
X60.421Y51.467
X60.225
X59.987Y51.411
X59.743Y51.392
X59.549
X59.311Y51.336
X59.066Y51.317
X58.014
X57.846Y51.326
X57.680Y51.352
X57.517Y51.396
X57.288Y51.431
X57.064Y51.499
X56.854Y51.599
X56.704Y51.674
X56.519Y51.770
X56.348Y51.889
X56.122Y52.039
X55.980Y52.127
X55.848Y52.230
X55.728Y52.346
X55.652Y52.421
X55.494Y52.592
X55.363Y52.785
X55.352Y52.797
X55.277Y52.872
X55.201Y52.947
X55.126Y53.022
X55.051Y53.097
X54.935Y53.218
X54.839Y53.341
X0.000
Y55.564
X53.564
X53.542Y55.596
X53.409Y55.791
X53.398Y55.803
X53.251Y55.960
X53.126Y56.137
X53.027Y56.328
X53.016Y56.348
X52.897Y56.519
X52.801Y56.704
X52.726Y56.854
X52.637Y57.038
X52.572Y57.233
X52.532Y57.435
X52.519Y57.638
Y57.786
X0.000
Y60.009
X52.732
X52.762Y60.126
X52.801Y60.312
X52.863Y60.494
X52.945Y60.666
X53.018Y60.882
X53.093Y61.107
X53.157Y61.305
X53.246Y61.492
X53.319Y61.709
X53.382Y61.906
X53.471Y62.093
X53.517Y62.231
X0.000
Y64.454
X56.714
X56.727Y64.509
Y64.552
X56.736Y64.720
X56.763Y64.887
X56.807Y65.049
X56.842Y65.279
X56.911Y65.506
X57.014Y65.720
X57.148Y65.916
X57.306Y66.087
X57.317Y66.099
X57.448Y66.292
X57.606Y66.463
X57.617Y66.475
X57.749Y66.667
X57.757Y66.676
X0.000
Y68.899
X62.073
X62.197Y69.015
X62.374Y69.140
X62.566Y69.239
X62.749Y69.328
X62.944Y69.393
X63.146Y69.433
X63.350Y69.446
X63.500
Y71.121
X0.000
Y73.344
X63.500
Y75.566
X0.000
Y77.789
X63.500
Y80.011
X0.000
Y82.234
X63.500
Y84.456
X0.000
Y86.678
X63.500
Y88.842
X63.496Y88.896
X63.460Y88.899
X0.040
G0Z5.080
G0X63.496Y0.004
G1Z-3.000F300.0
G1X63.500Y0.058F1000.0
Y49.889
X63.275
G2X62.490Y50.096I0.000J1.588
G1X62.352Y50.165
G2X61.589Y50.617I0.397J1.537
G1X61.514Y50.693
X61.439Y50.768
X61.364Y50.843
X61.288Y50.918
X61.213Y50.993
X61.050Y51.171
X60.762Y51.298
X60.612Y51.374
X60.461Y51.449
X60.421Y51.467
X60.225
G2X59.743Y51.392I-0.483J1.512
G1X59.549
G2X59.066Y51.317I-0.483J1.512
G1X58.014
G2X57.517Y51.396I0.000J1.587
G2X56.854Y51.599I0.121J1.583
G1X56.704Y51.674
X56.348Y51.889
X56.122Y52.039
G2X55.728Y52.346I0.765J1.391
G1X55.652Y52.421
G2X55.363Y52.785I1.084J1.159
G1X55.352Y52.797
X55.277Y52.872
X55.201Y52.947
X55.126Y53.022
X55.051Y53.097
G2X54.744Y53.492I1.084J1.159
G1X54.594Y53.718
X54.444Y53.943
X54.229Y54.299
X54.154Y54.450
X54.079Y54.600
X54.004Y54.750
X53.897Y54.979
X53.778Y55.201
X53.703Y55.351
X53.692Y55.371
X53.542Y55.596
X53.409Y55.791
X53.398Y55.803
G2X53.027Y56.328I1.084J1.159
G1X53.016Y56.348
X52.801Y56.704
X52.726Y56.854
G2X52.519Y57.638I1.380J0.784
G1Y58.766
G2X52.594Y59.248I1.587J0.000
G1Y59.292
G2X52.686Y59.825I1.587J0.000
G1X52.762Y60.126
G2X52.945Y60.666I1.570J-0.233
G1X53.018Y60.882
X53.093Y61.107
X53.246Y61.492
X53.319Y61.709
X53.471Y62.093
X53.628Y62.481
G2X53.999Y63.006I1.455J-0.634
G2X54.363Y63.296I1.159J-1.084
G1X54.375Y63.307
G2X54.901Y63.678I1.159J-1.084
G1X55.297Y63.837
X55.522Y63.912
X55.748Y63.987
X56.128Y64.093
X56.265Y64.135
X56.640Y64.286
X56.668Y64.301
X56.679Y64.315
X56.727Y64.509
Y64.552
G2X56.807Y65.049I1.587J0.000
G2X57.306Y66.087I1.583J-0.121
G1X57.317Y66.099
G2X57.606Y66.463I1.374J-0.796
G1X57.617Y66.475
G2X57.907Y66.839I1.374J-0.796
G1X57.982Y66.914
X58.057Y66.989
X58.132Y67.064
X58.207Y67.139
X58.283Y67.215
X58.358Y67.290
G2X58.883Y67.661I1.159J-1.084
G1X59.280Y67.820
X59.505Y67.895
G2X60.118Y68.018I0.613J-1.464
G1X60.462
G2X60.945Y68.093I0.483J-1.512
G1X61.022
X61.287Y68.190
X61.288Y68.191
X61.364Y68.267
X61.439Y68.342
G2X61.803Y68.631I1.159J-1.084
G1X61.814Y68.642
X61.890Y68.717
X61.965Y68.793
X62.040Y68.868
G2X62.566Y69.239I1.159J-1.084
G2X63.350Y69.446I0.784J-1.380
G1X63.500
Y88.842
X63.496Y88.896
X63.442Y88.900
X0.058
X0.004Y88.896
X0.000Y88.842
Y0.058
X0.004Y0.004
X0.058Y0.000
X63.442
X63.496Y0.004
G0Z5.080
G0X63.460Y0.001
G1Z-4.000F300.0
G1X0.040F1000.0
X0.004Y0.004
X0.000Y0.058
Y2.224
X63.500
Y4.446
X0.000
Y6.669
X63.500
Y8.891
X0.000
Y11.114
X63.500
Y13.336
X0.000
Y15.559
X63.500
Y17.781
X0.000
Y20.004
X63.500
Y22.226
X0.000
Y24.449
X63.500
Y26.671
X0.000
Y28.894
X63.500
Y31.116
X0.000
Y33.339
X63.500
Y35.561
X0.000
Y37.784
X63.500
Y40.006
X0.000
Y42.229
X63.500
Y44.451
X0.000
Y46.674
X63.500
Y47.980
X63.157Y47.935
X62.918Y47.879
X62.673Y47.860
X61.997
X61.759Y47.878
X61.522Y47.933
X61.295Y48.024
X61.086Y48.147
X60.901Y48.299
X60.706Y48.432
X60.564Y48.520
X60.432Y48.623
X60.312Y48.739
X60.236Y48.814
X60.161Y48.889
X60.154Y48.896
X0.000
Y51.119
X54.130
X54.079Y51.218
X53.988Y51.407
X53.922Y51.605
X53.833Y51.793
X53.769Y51.990
X53.701Y52.188
X53.660Y52.395
X53.646Y52.604
Y52.647
X53.600Y52.826
X53.576Y53.008
X53.515Y53.260
X53.472Y53.341
X0.000
Y55.564
X52.220
X52.188Y55.598
X52.056Y55.791
X52.045Y55.803
X51.901Y55.957
X51.777Y56.131
X51.677Y56.322
X51.604Y56.523
X51.559Y56.729
X51.484Y57.030
X51.433Y57.204
X51.402Y57.383
X51.392Y57.563
Y57.786
X0.000
Y60.009
X51.542
Y60.118
X51.561Y60.363
X51.617Y60.601
Y60.613
X51.590Y60.707
X51.525Y60.894
X51.484Y61.088
X51.440Y61.233
X51.365Y61.459
X51.297Y61.657
X51.255Y61.863
X51.241Y62.072
Y62.231
X0.000
Y64.454
X53.018
X53.062Y64.484
X53.247Y64.580
X53.398Y64.655
X53.548Y64.730
X53.698Y64.805
X53.848Y64.880
X53.999Y64.955
X54.088Y65.002
X54.038Y65.226
X54.022Y65.454
Y66.205
X54.035Y66.409
X54.075Y66.611
X54.097Y66.676
X0.000
Y68.899
X53.213
X53.196Y69.103
X53.139Y69.342
X53.120Y69.587
Y69.963
X53.133Y70.166
X53.173Y70.368
X53.238Y70.563
X53.327Y70.747
X53.403Y70.897
X53.478Y71.047
X53.516Y71.121
X0.000
Y73.344
X54.437
X54.445Y73.360
X54.556Y73.533
X54.687Y73.689
X54.818Y73.882
X54.976Y74.053
X55.051Y74.128
X55.126Y74.203
X55.247Y74.319
X55.379Y74.422
X55.521Y74.510
X55.692Y74.629
X55.877Y74.725
X56.028Y74.800
X56.211Y74.889
X56.406Y74.954
X56.608Y74.994
X56.812Y75.007
X57.563
X57.744Y74.997
X57.923Y74.966
X58.097Y74.915
X58.290Y74.874
X58.477Y74.809
X58.681Y74.742
X58.873Y74.650
X58.932Y74.623
X58.954Y74.620
X59.141Y74.631
X59.818
X59.986Y74.622
X60.152Y74.596
X60.315Y74.552
X60.524Y74.521
X60.727Y74.464
X60.978Y74.405
X61.020Y74.406
X61.095
X61.262Y74.397
X61.428Y74.443
X61.599Y74.472
X61.772Y74.481
X62.298
X62.509Y74.467
X62.719Y74.424
X62.923Y74.353
X63.114Y74.255
X63.288Y74.134
X63.500Y73.995
Y75.566
X0.000
Y77.789
X63.500
Y80.011
X0.000
Y82.234
X63.500
Y84.456
X0.000
Y86.678
X63.500
Y88.842
X63.496Y88.896
X63.460Y88.899
X0.040
G0Z5.080
G0X0.004Y0.004
G1Z-4.000F300.0
G1X0.058Y0.000F1000.0
X63.442
X63.496Y0.004
X63.500Y0.058
Y47.980
X63.157Y47.935
G2X62.673Y47.860I-0.484J1.512
G1X61.997
G2X60.901Y48.299I0.000J1.588
G1X60.706Y48.432
G2X60.312Y48.739I0.765J1.391
G1X60.236Y48.814
X60.161Y48.889
G2X59.790Y49.415I1.084J1.159
G1X59.779Y49.434
X59.565Y49.790
X59.554Y49.810
X59.495Y49.889
X59.248
X58.932Y49.822
X58.873Y49.795
X58.486Y49.639
X58.101Y49.486
X57.721Y49.380
G2X57.188Y49.288I-0.533J1.495
G1X56.812
G2X56.329Y49.363I0.000J1.587
G1X56.286
G2X55.502Y49.570I0.000J1.587
G2X54.976Y49.941I0.634J1.455
G1X54.901Y50.016
X54.826Y50.091
X54.751Y50.167
G2X54.379Y50.692I1.084J1.159
G1X54.304Y50.843
X54.293Y50.862
X54.079Y51.218
X53.922Y51.605
X53.769Y51.990
G2X53.646Y52.604I1.464J0.613
G1Y52.647
X53.576Y53.008
X53.515Y53.260
X53.403Y53.473
X53.327Y53.623
X53.168Y54.019
X53.095Y54.236
X52.945Y54.611
X52.876Y54.750
X52.805Y54.892
X52.582Y55.190
X52.571Y55.201
X52.496Y55.277
X52.421Y55.352
X52.346Y55.427
G2X52.056Y55.791I1.084J1.159
G1X52.045Y55.803
G2X51.559Y56.729I1.084J1.159
G1X51.484Y57.030
G2X51.392Y57.563I1.495J0.533
G1Y58.164
G2X51.467Y58.647I1.587J0.000
G1Y59.517
G2X51.542Y60.000I1.588J0.000
G1Y60.118
G2X51.617Y60.601I1.588J0.000
G1Y60.613
X51.590Y60.707
X51.484Y61.088
X51.440Y61.233
X51.365Y61.459
G2X51.241Y62.072I1.464J0.613
G1Y62.298
G2X51.449Y63.082I1.587J0.000
G2X51.820Y63.607I1.455J-0.634
G2X52.215Y63.914I1.159J-1.084
G1X52.440Y64.065
X52.666Y64.215
X52.891Y64.365
X53.247Y64.580
X53.398Y64.655
X53.548Y64.730
X53.698Y64.805
X53.848Y64.880
X53.999Y64.955
X54.088Y65.002
G2X54.022Y65.454I1.522J0.452
G1Y66.205
G2X54.229Y66.989I1.588J0.000
G2X54.496Y67.408I1.455J-0.634
G2X53.849Y67.826I0.512J1.503
G1X53.774Y67.901
X53.699Y67.977
G2X53.196Y69.103I1.084J1.159
G2X53.120Y69.587I1.512J0.484
G1Y69.963
G2X53.327Y70.747I1.588J0.000
G1X53.403Y70.897
X53.478Y71.047
X53.692Y71.404
G2X53.999Y71.799I1.391J-0.765
G1X54.074Y71.874
X54.149Y71.949
X54.199Y72.000
X54.172Y72.292
Y72.367
G2X54.296Y72.981I1.587J0.000
G2X54.687Y73.689I1.539J-0.388
G2X54.976Y74.053I1.374J-0.796
G1X55.051Y74.128
X55.126Y74.203
G2X55.521Y74.510I1.159J-1.084
G1X55.877Y74.725
X56.028Y74.800
G2X56.812Y75.007I0.784J-1.380
G1X57.563
G2X58.097Y74.915I0.000J-1.588
G1X58.477Y74.809
X58.873Y74.650
X58.932Y74.623
X58.954Y74.620
X59.141Y74.631
X59.818
G2X60.315Y74.552I0.000J-1.588
G1X60.727Y74.464
X60.978Y74.405
X61.020Y74.406
X61.095
X61.262Y74.397
G2X61.772Y74.481I0.509J-1.504
G1X62.298
G2X63.288Y74.134I0.000J-1.588
G1X63.500Y73.995
Y88.842
X63.496Y88.896
X63.442Y88.900
X0.058
X0.004Y88.896
X0.000Y88.842
Y0.058
X0.004Y0.004
G0Z5.080
G0X57.178Y0.001
G1Z-5.000F300.0
G1X0.040F1000.0
X0.004Y0.004
X0.000Y0.058
Y2.224
X56.440
X56.441Y2.242
X56.485Y2.454
X56.558Y2.661
X56.659Y2.856
X56.784Y3.033
X56.930Y3.188
X56.941Y3.200
X57.074Y3.395
X57.224Y3.620
X57.312Y3.762
X57.415Y3.895
X57.531Y4.015
X57.542Y4.027
X57.583Y4.093
X57.529Y4.262
X57.443Y4.443
X57.442Y4.446
X0.000
Y6.669
X57.851
X57.857Y6.681
X57.976Y6.852
X58.126Y7.077
X58.137Y7.097
X58.256Y7.319
X58.362Y7.547
X58.437Y7.698
X58.513Y7.848
X58.673Y8.132
X58.390Y8.107
X58.315
X58.106Y8.120
X57.900Y8.162
X57.701Y8.230
X57.476Y8.305
X57.251Y8.380
X57.036Y8.451
X56.832Y8.552
X56.644Y8.682
X56.479Y8.835
X56.423Y8.891
X0.000
Y11.114
X55.690
X55.691Y11.117
X55.739Y11.341
X55.820Y11.560
X55.935Y11.767
X56.079Y11.954
X56.247Y12.116
X56.432Y12.250
X56.629Y12.352
X56.648Y12.363
X56.874Y12.513
X57.099Y12.663
X57.270Y12.782
X57.456Y12.878
X57.648Y12.971
X57.852Y13.037
X58.050Y13.105
X58.256Y13.146
X58.465Y13.160
X59.066
X59.279Y13.146
X59.492Y13.102
X59.698Y13.029
X59.893Y12.928
X60.070Y12.803
X60.226Y12.657
X60.373Y12.500
X60.498Y12.323
X60.597Y12.131
X60.672Y11.981
X60.747Y11.831
X60.840Y11.638
X60.906Y11.435
X60.957Y11.295
X61.174Y11.341
X61.396Y11.357
X61.696
X61.908Y11.343
X62.118Y11.300
X62.321Y11.229
X62.513Y11.131
X62.537Y11.114
X63.500
G0Z5.080
G0Y13.336
G1Z-5.000F300.0
G1X0.000F1000.0
Y15.559
X55.978
X55.958Y15.598
X55.868Y15.782
X55.803Y15.977
X55.763Y16.179
X55.750Y16.382
Y16.683
X55.764Y16.894
X55.807Y17.104
X55.879Y17.308
X55.976Y17.499
X56.097Y17.673
X56.164Y17.781
X0.000
Y20.004
G0Z5.080
G0X60.145Y15.559
G1Z-5.000F300.0
G1X63.500F1000.0
Y17.781
X59.911
G0Z5.080
G0X0.000Y20.004
G1Z-5.000F300.0
G1X63.500F1000.0
Y22.226
X0.000
Y24.449
X63.500
Y26.671
X0.000
Y28.894
X63.500
Y31.116
X0.000
Y33.339
X63.500
Y35.561
X0.000
Y37.784
X63.500
Y40.006
X0.000
Y42.229
X63.500
Y44.451
X0.000
Y46.674
X59.096
X59.039Y46.785
X58.963Y46.935
X58.888Y47.085
X58.813Y47.235
X58.738Y47.386
X58.658Y47.548
X58.597Y47.718
X58.406Y47.666
X58.211Y47.639
X58.048Y47.595
X57.882Y47.568
X57.714Y47.559
X57.563
X57.319Y47.578
X57.081Y47.634
X56.812
X56.631Y47.645
X56.452Y47.676
X56.278Y47.727
X56.029Y47.785
X55.985
X55.740Y47.804
X55.501Y47.860
X55.273Y47.881
X55.051Y47.935
X54.855Y47.951
X54.662Y47.992
X54.475Y48.056
X54.299Y48.142
X54.149Y48.217
X53.999Y48.292
X53.814Y48.388
X53.642Y48.507
X53.500Y48.595
X53.368Y48.698
X53.248Y48.814
X53.171Y48.896
X0.000
Y51.119
X52.506
X52.473Y51.248
X52.448Y51.430
X52.404Y51.593
X52.378Y51.759
X52.369Y51.927
Y52.121
X52.312Y52.359
X52.294Y52.604
Y52.904
X52.316Y53.167
X52.311Y53.197
X52.269Y53.334
X52.265Y53.341
X0.000
Y55.564
X50.958
X50.837Y55.747
X50.718Y55.918
X50.622Y56.103
X50.529Y56.296
X50.463Y56.499
X50.395Y56.697
X50.354Y56.903
X50.340Y57.112
Y57.786
X0.000
Y60.009
X50.245
X50.240Y60.022
X50.235Y60.030
X50.085Y60.255
X49.966Y60.427
X49.871Y60.612
X49.784Y60.788
X49.720Y60.975
X49.680Y61.168
X49.664Y61.363
X49.607Y61.602
X49.588Y61.847
Y62.231
X0.000
Y64.454
X50.564
X50.706Y64.586
X50.891Y64.715
X51.093Y64.816
X51.305Y64.887
X51.444Y64.955
X51.594Y65.031
X51.744Y65.106
X51.895Y65.181
X52.045Y65.256
X52.064Y65.267
X52.259Y65.400
X52.369Y65.495
Y66.130
X52.381Y66.329
X52.419Y66.525
X52.468Y66.676
X0.000
Y68.899
X51.542
Y69.737
X51.561Y69.982
X51.618Y70.221
X51.640Y70.456
X51.697Y70.685
X51.723Y70.875
X51.772Y71.061
X51.781Y71.121
X0.000
Y73.344
X52.461
X52.492Y73.432
X52.567Y73.657
X52.638Y73.871
X52.739Y74.076
X52.869Y74.263
X53.022Y74.429
X53.143Y74.545
X53.275Y74.647
X53.417Y74.736
X53.588Y74.855
X53.773Y74.950
X53.962Y75.041
X54.160Y75.107
X54.348Y75.196
X54.545Y75.260
X54.771Y75.335
X54.996Y75.410
X55.222Y75.485
X55.447Y75.560
X55.465Y75.566
X0.000
Y77.789
G0Z5.080
G0X60.867Y75.566
G1Z-5.000F300.0
G1X59.090F1000.0
G0Z5.080
G0X0.000Y77.789
G1Z-5.000F300.0
G1X63.500F1000.0
Y78.350
X63.232Y78.201
X63.082Y78.126
X62.906Y78.040
X62.719Y77.976
X62.526Y77.935
X62.330Y77.919
X62.092Y77.863
X61.847Y77.844
X61.246
X61.001Y77.863
X60.763Y77.919
X60.720
X60.511Y77.933
X60.304Y77.974
X60.106Y78.042
X59.881Y78.117
X59.666Y78.188
X59.462Y78.289
X59.275Y78.419
X59.109Y78.572
X59.034Y78.648
X58.959Y78.723
X58.812Y78.880
X58.687Y79.057
X58.588Y79.248
X58.499Y79.432
X58.433Y79.627
X58.394Y79.829
X58.382Y80.011
X0.000
Y82.234
X59.479
X59.635Y82.315
X59.785Y82.390
X59.978Y82.483
X60.181Y82.549
X60.379Y82.617
X60.586Y82.658
X60.795Y82.672
X61.696
X61.900Y82.659
X62.102Y82.619
X62.297Y82.554
X62.481Y82.465
X62.631Y82.390
X62.781Y82.315
X62.937Y82.234
X63.500
G0Z5.080
G0Y84.456
G1Z-5.000F300.0
G1X0.000F1000.0
Y86.678
X63.500
Y88.842
X63.496Y88.896
X63.460Y88.899
X0.040
G0Z5.080
G0X57.178Y0.000
G1Z-5.000F300.0
G1Y0.225F1000.0
X57.178Y0.247
G2X56.848Y0.663I1.061J1.181
G1X56.634Y1.019
G2X56.427Y1.804I1.380J0.784
G1Y2.029
G2X56.930Y3.188I1.588J0.000
G1X56.941Y3.200
X57.074Y3.395
X57.224Y3.620
G2X57.531Y4.015I1.391J-0.765
G1X57.542Y4.027
X57.583Y4.093
X57.529Y4.262
G2X57.328Y5.035I1.387J0.773
G1Y5.110
G2X57.452Y5.723I1.587J0.000
G1X57.527Y5.949
X57.686Y6.345
X57.761Y6.495
X57.976Y6.852
X58.126Y7.077
X58.137Y7.097
X58.256Y7.319
X58.362Y7.547
X58.437Y7.698
X58.513Y7.848
X58.673Y8.132
X58.390Y8.107
X58.315
G2X57.701Y8.230I0.000J1.588
G1X57.476Y8.305
X57.251Y8.380
G2X56.479Y8.835I0.388J1.539
G1X56.404Y8.910
X56.329Y8.985
G2X55.874Y9.757I1.084J1.159
G1X55.798Y9.983
G2X55.675Y10.596I1.464J0.613
G1Y10.896
G2X56.629Y12.352I1.588J0.000
G1X56.648Y12.363
X56.874Y12.513
X57.099Y12.663
X57.456Y12.878
X57.852Y13.037
G2X58.465Y13.160I0.613J-1.464
G1X59.066
G2X60.226Y12.657I0.000J-1.588
G2X60.597Y12.131I-1.084J-1.159
G1X60.672Y11.981
X60.747Y11.831
X60.906Y11.435
X60.957Y11.295
X61.396Y11.357
X61.696
G2X62.687Y11.010I0.000J-1.588
G1X62.706Y10.999
X62.856Y10.924
G2X63.382Y10.553I-0.634J-1.455
G1X63.457Y10.478
X63.500Y10.436
Y44.779
X63.425
G2X62.265Y45.282I0.000J1.588
G1X62.202Y45.345
X61.847Y45.305
X61.321
G2X60.707Y45.428I0.000J1.588
G1X60.311Y45.587
X60.161Y45.662
G2X59.635Y46.033I0.634J1.455
G1X59.560Y46.109
X59.485Y46.184
X59.410Y46.259
G2X59.039Y46.785I1.084J1.159
G1X58.963Y46.935
X58.888Y47.085
X58.813Y47.235
X58.738Y47.386
X58.597Y47.718
X58.211Y47.639
G2X57.714Y47.559I-0.497J1.508
G1X57.563
G2X57.081Y47.634I0.000J1.588
G1X56.812
G2X56.278Y47.727I0.000J1.588
G1X56.029Y47.785
X55.985
G2X55.501Y47.860I0.000J1.588
G2X55.051Y47.935I0.033J1.587
G2X54.299Y48.142I0.033J1.587
G1X54.149Y48.217
X53.999Y48.292
X53.642Y48.507
G2X53.248Y48.814I0.765J1.391
G2X52.876Y49.340I1.084J1.159
G1X52.717Y49.736
X52.611Y50.116
G2X52.519Y50.650I1.495J0.533
G1Y51.069
X52.448Y51.430
G2X52.369Y51.927I1.508J0.497
G1Y52.121
G2X52.294Y52.604I1.512J0.483
G1Y52.904
X52.316Y53.167
X52.311Y53.197
X52.269Y53.334
X52.119Y53.710
X51.966Y54.094
X51.893Y54.311
X51.824Y54.450
X51.814Y54.469
X51.663Y54.695
X51.530Y54.889
X51.519Y54.901
X51.444Y54.976
X51.369Y55.051
X51.294Y55.126
G2X50.987Y55.521I1.084J1.159
G1X50.837Y55.747
X50.622Y56.103
X50.463Y56.499
G2X50.340Y57.112I1.464J0.613
G1Y58.390
G2X50.415Y58.873I1.588J0.000
G1Y59.260
G2X50.340Y59.743I1.512J0.483
G1Y59.745
X50.240Y60.022
X50.235Y60.030
X50.085Y60.255
X49.871Y60.612
G2X49.664Y61.363I1.380J0.784
G2X49.588Y61.847I1.512J0.484
G1Y62.523
G2X49.795Y63.307I1.588J0.000
G1X49.871Y63.457
X49.946Y63.608
X50.021Y63.758
G2X50.392Y64.284I1.455J-0.634
G1X50.467Y64.359
X50.542Y64.434
G2X51.305Y64.887I1.159J-1.084
G1X51.444Y64.955
X51.594Y65.031
X51.744Y65.106
X51.895Y65.181
X52.045Y65.256
X52.064Y65.267
X52.259Y65.400
X52.369Y65.495
Y66.130
G2X52.480Y66.714I1.588J0.000
G1X52.421Y66.774
X52.346Y66.849
G2X52.039Y67.244I1.084J1.159
G1X51.824Y67.601
G2X51.622Y68.263I1.380J0.784
G2X51.542Y68.760I1.508J0.497
G1Y69.737
G2X51.618Y70.221I1.588J0.000
G2X51.697Y70.685I1.587J-0.033
G1X51.772Y71.061
X51.860Y71.473
G2X52.050Y72.024I1.570J-0.233
G2X52.294Y72.416I1.455J-0.634
G1Y72.518
G2X52.386Y73.051I1.588J0.000
G1X52.492Y73.432
X52.567Y73.657
G2X53.022Y74.429I1.539J-0.388
G2X53.417Y74.736I1.159J-1.084
G1X53.773Y74.950
X54.160Y75.107
X54.545Y75.260
X54.771Y75.335
X54.996Y75.410
X55.222Y75.485
X55.447Y75.560
X55.827Y75.666
X56.128Y75.741
X56.540Y75.829
G2X57.037Y75.909I0.497J-1.508
G1X57.789
G2X58.402Y75.786I0.000J-1.587
G1X58.628Y75.710
X58.932Y75.599
X59.248Y75.533
X60.043
G2X60.526Y75.458I0.000J-1.587
G1X60.613
X60.698Y75.483
X60.837Y75.551
X60.979Y75.623
X60.988Y75.631
G2X61.352Y75.921I1.159J-1.084
G2X61.814Y76.228I1.096J-1.148
G1X62.210Y76.387
G2X62.702Y76.505I0.613J-1.464
G2X63.199Y76.585I0.497J-1.508
G1X63.500
Y78.350
X63.232Y78.201
X63.082Y78.126
G2X62.330Y77.919I-0.784J1.380
G2X61.847Y77.844I-0.484J1.512
G1X61.246
G2X60.763Y77.919I0.000J1.587
G1X60.720
G2X60.106Y78.042I0.000J1.587
G1X59.881Y78.117
G2X59.109Y78.572I0.388J1.539
G1X59.034Y78.648
X58.959Y78.723
G2X58.588Y79.248I1.084J1.159
G2X58.381Y80.033I1.380J0.784
G1Y80.108
G2X58.473Y80.641I1.588J0.000
G1X58.548Y80.942
G2X59.034Y81.868I1.570J-0.233
G1X59.109Y81.944
G2X59.635Y82.315I1.159J-1.084
G1X59.785Y82.390
X60.181Y82.549
G2X60.795Y82.672I0.613J-1.464
G1X61.696
G2X62.481Y82.465I0.000J-1.588
G1X62.631Y82.390
X62.781Y82.315
G2X63.307Y81.944I-0.634J-1.455
G1X63.382Y81.868
X63.457Y81.793
X63.500Y81.752
Y88.842
X63.496Y88.896
X63.442Y88.900
X0.058
X0.004Y88.896
X0.000Y88.842
Y0.058
X0.004Y0.004
X0.058Y0.000
X57.178
G0Z5.080
G0X60.428Y16.457
G1Z-5.000F300.0
G2X59.925Y15.298I-1.587J0.000F1000.0
G2X59.399Y14.927I-1.159J1.084
G1X59.012Y14.770
X58.873Y14.701
G2X58.322Y14.511I-0.784J1.380
G2X57.789Y14.419I-0.533J1.495
G1X57.714
G2X56.930Y14.626I0.000J1.588
G2X56.404Y14.997I0.634J1.455
G1X56.329Y15.072
G2X55.958Y15.598I1.084J1.159
G2X55.750Y16.382I1.380J0.784
G1Y16.683
G2X56.097Y17.673I1.587J0.000
G2X56.404Y18.068I1.391J-0.765
G2X56.930Y18.439I1.159J-1.084
G2X57.714Y18.646I0.784J-1.380
G1X57.864
G2X58.348Y18.571I0.000J-1.588
G2X59.099Y18.364I-0.033J-1.587
G1X59.455Y18.149
G2X59.850Y17.842I-0.765J-1.391
G1X59.925Y17.767
G2X60.428Y16.608I-1.084J-1.159
G1Y16.457
G0Z5.080
G0X45.573Y0.001
G1Z-6.000F300.0
G1X0.040F1000.0
X0.004Y0.004
X0.000Y0.058
Y2.224
X46.373
X46.484Y2.282
X46.634Y2.357
X46.827Y2.450
X47.030Y2.516
X47.256Y2.591
X47.436Y2.655
X47.624Y2.696
X47.814Y2.714
X47.688Y2.904
X47.591Y3.110
X47.524Y3.328
X47.481Y3.345
X47.267Y3.416
X47.063Y3.517
X46.875Y3.647
X46.710Y3.800
X46.698Y3.811
X46.505Y3.943
X46.334Y4.101
X46.259Y4.176
X46.184Y4.251
X46.109Y4.326
X46.033Y4.401
X45.992Y4.446
X0.000
Y6.669
X44.791
X44.760Y6.731
X44.671Y6.914
X44.606Y7.109
X44.566Y7.311
X44.553Y7.515
Y7.517
X44.471Y7.733
X44.420Y7.960
X44.403Y8.191
Y8.266
X44.416Y8.470
X44.456Y8.672
X44.521Y8.867
X44.533Y8.891
X0.000
Y11.114
G0Z5.080
G0X51.754Y6.669
G1Z-6.000F300.0
G1X53.097F1000.0
X53.023Y6.815
X52.952Y7.018
X52.909Y7.228
X52.895Y7.440
Y8.191
X52.914Y8.435
X52.970Y8.674
Y8.761
X52.939Y8.891
X49.413
G0Z5.080
G0X0.000Y11.114
G1Z-6.000F300.0
G1X52.904F1000.0
X52.908Y11.175
X52.947Y11.377
X53.013Y11.572
X53.102Y11.756
X53.186Y11.921
X53.289Y12.076
X53.409Y12.218
X53.542Y12.413
X53.630Y12.555
X53.733Y12.687
X53.849Y12.807
X53.924Y12.883
X53.999Y12.958
X54.074Y13.033
X54.149Y13.108
X54.225Y13.183
X54.300Y13.258
X54.382Y13.336
X0.000
Y15.559
X53.431
X53.421Y15.706
Y16.082
X53.434Y16.285
X53.473Y16.487
X53.539Y16.682
X53.628Y16.866
X53.703Y17.016
X53.778Y17.166
X53.853Y17.317
X53.949Y17.502
X54.068Y17.673
X54.140Y17.781
X0.000
Y20.004
X59.959
X59.993Y20.016
X60.186Y20.057
X60.323Y20.099
X60.510Y20.188
X60.707Y20.251
X60.924Y20.324
X60.951Y20.339
X60.982Y20.378
X61.132Y20.604
X61.143Y20.623
X61.227Y20.789
X61.330Y20.944
X61.450Y21.085
X61.583Y21.280
X61.671Y21.422
X61.774Y21.554
X61.890Y21.675
X61.965Y21.750
X62.040Y21.825
X62.196Y21.971
X62.373Y22.096
X62.567Y22.197
X62.650Y22.226
X0.000
Y24.449
X63.500
Y26.671
X0.000
Y28.894
X63.500
Y31.116
X0.000
Y33.339
X63.500
Y35.561
X0.000
Y37.784
X63.500
Y40.006
X62.235
G0Z5.080
G0X55.770
G1Z-6.000F300.0
G1X0.000F1000.0
Y42.229
X53.657
X53.646Y42.383
Y43.811
X53.657Y43.992
X53.688Y44.171
X53.739Y44.345
X53.761Y44.451
X0.000
Y46.674
X48.916
X48.907Y46.687
X48.805Y46.891
X48.735Y47.106
X48.669Y47.293
X48.628Y47.488
X48.612Y47.686
X48.555Y47.925
X48.536Y48.170
Y48.771
X48.544Y48.896
X0.000
Y51.119
X51.140
X51.142Y51.122
X51.214Y51.338
X51.242Y51.434
X51.243Y51.476
X51.241Y51.551
Y53.173
X51.202Y53.341
X0.000
Y55.564
X49.802
X49.795Y55.577
X49.720Y55.727
X49.627Y55.920
X49.561Y56.123
X49.486Y56.349
X49.418Y56.547
X49.377Y56.753
X49.363Y56.962
Y57.006
X49.307Y57.244
X49.288Y57.488
Y57.786
X0.000
Y60.009
X48.199
X48.174Y60.140
X48.160Y60.344
Y60.419
X48.174Y60.628
X48.216Y60.834
X48.284Y61.032
X48.311Y61.127
Y61.471
X48.325Y61.680
X48.366Y61.886
X48.434Y62.084
X48.461Y62.179
Y62.231
X0.000
Y64.454
X49.230
X49.351Y64.596
X49.465Y64.767
X49.602Y64.923
X49.758Y65.060
X49.929Y65.174
X50.071Y65.295
X50.226Y65.398
X50.392Y65.482
X50.542Y65.557
X50.692Y65.632
X50.843Y65.707
X50.941Y65.758
Y66.130
X50.954Y66.333
X50.993Y66.534
X51.040Y66.676
X0.000
Y68.899
X50.415
Y69.512
X50.434Y69.757
X50.490Y69.996
X50.512Y70.223
X50.565Y70.445
Y71.121
X0.000
Y73.344
X51.307
X51.365Y73.507
X51.431Y73.710
X51.524Y73.903
X51.599Y74.053
X51.674Y74.204
X51.770Y74.389
X51.889Y74.560
X51.900Y74.579
X51.999Y74.771
X52.124Y74.948
X52.271Y75.105
X52.346Y75.180
X52.503Y75.327
X52.680Y75.452
X52.872Y75.551
X52.901Y75.566
X0.000
Y77.789
X58.340
X58.290Y77.824
X58.132Y77.971
X58.120Y77.982
X57.963Y78.086
X57.820Y78.208
X57.627Y78.339
X57.456Y78.497
X57.381Y78.572
X57.234Y78.730
X57.109Y78.907
X57.010Y79.098
X56.999Y79.118
X56.880Y79.289
X56.784Y79.474
X56.709Y79.624
X56.620Y79.808
X56.555Y80.003
X56.553Y80.011
X0.000
Y82.234
X56.976
X57.074Y82.375
X57.162Y82.517
X57.265Y82.650
X57.381Y82.770
X57.456Y82.845
X57.531Y82.920
X57.606Y82.996
X57.727Y83.111
X57.859Y83.214
X58.001Y83.302
X58.226Y83.453
X58.398Y83.572
X58.583Y83.667
X58.759Y83.753
X58.946Y83.818
X59.139Y83.858
X59.334Y83.874
X59.573Y83.931
X59.818Y83.950
X60.419
X60.600Y83.939
X60.779Y83.908
X60.952Y83.857
X61.253Y83.782
X61.447Y83.741
X61.633Y83.676
X61.859Y83.601
X62.062Y83.535
X62.255Y83.442
X62.405Y83.367
X62.556Y83.292
X62.706Y83.216
X62.856Y83.141
X63.007Y83.066
X63.157Y82.991
X63.307Y82.916
X63.457Y82.841
X63.500Y82.821
Y84.456
X0.000
Y86.678
X63.500
Y88.842
X63.496Y88.896
X63.460Y88.899
X0.040
G0Z5.080
G0X52.682Y46.674
G1Z-6.000F300.0
G1X52.819F1000.0
G0Z5.080
G0X45.573Y0.000
G1Z-6.000F300.0
G2X45.455Y0.601I1.469J0.601F1000.0
G1Y0.676
G2X45.662Y1.460I1.588J0.000
G2X46.484Y2.282I1.455J-0.634
G1X46.634Y2.357
X47.030Y2.516
X47.256Y2.591
G2X47.814Y2.714I0.613J-1.464
G2X47.524Y3.328I1.258J0.968
G1X47.481Y3.345
G2X46.710Y3.800I0.388J1.539
G1X46.698Y3.811
G2X46.334Y4.101I0.796J1.374
G1X46.259Y4.176
X46.184Y4.251
X46.109Y4.326
X46.033Y4.401
G2X45.578Y5.173I1.084J1.159
G1X45.485Y5.477
X45.276Y5.773
X45.061Y6.130
X44.986Y6.280
X44.911Y6.430
X44.836Y6.580
X44.760Y6.731
G2X44.553Y7.515I1.380J0.784
G1Y7.517
G2X44.403Y8.191I1.437J0.674
G1Y8.266
G2X44.610Y9.050I1.588J0.000
G2X44.981Y9.576I1.455J-0.634
G2X45.507Y9.947I1.159J-1.084
G1X45.657Y10.022
G2X46.441Y10.230I0.784J-1.380
G1X46.817
G2X47.601Y10.022I0.000J-1.588
G1X47.752Y9.947
X48.108Y9.733
X48.127Y9.722
X48.484Y9.507
X48.503Y9.496
X48.859Y9.282
X48.879Y9.271
G2X49.404Y8.900I-0.634J-1.455
G1X49.480Y8.825
X49.555Y8.749
X49.630Y8.674
X49.705Y8.599
X49.780Y8.524
X50.021Y8.239
X50.243Y8.062
G2X50.607Y7.772I-0.796J-1.374
G1X50.682Y7.697
X50.757Y7.622
X50.832Y7.547
X50.907Y7.472
X50.983Y7.397
X51.058Y7.322
X51.133Y7.246
X51.208Y7.171
X51.283Y7.096
X51.358Y7.021
X51.433Y6.946
X51.509Y6.871
X51.584Y6.796
X51.659Y6.720
X51.668Y6.712
X51.810Y6.641
X52.166Y6.426
X52.185Y6.415
X52.336Y6.340
X52.486Y6.265
X52.545Y6.238
X52.861Y6.172
X53.023
X53.346Y6.239
X53.327Y6.280
X53.252Y6.430
X53.241Y6.450
G2X52.895Y7.440I1.241J0.990
G1Y8.191
G2X52.970Y8.674I1.587J0.000
G1Y8.761
G2X52.895Y9.243I1.512J0.483
G1Y9.587
G2X52.820Y10.070I1.512J0.483
G1Y10.220
G2X52.895Y10.703I1.587J0.000
G1Y10.972
G2X53.102Y11.756I1.587J0.000
G2X53.409Y12.218I1.455J-0.634
G1X53.542Y12.413
G2X53.849Y12.807I1.391J-0.765
G1X53.924Y12.883
X53.999Y12.958
X54.074Y13.033
X54.149Y13.108
X54.225Y13.183
X54.300Y13.258
X54.591Y13.503
X54.525Y13.570
X54.450Y13.645
X54.375Y13.720
X54.300Y13.795
X54.225Y13.870
G2X53.853Y14.396I1.084J1.159
G1X53.778Y14.546
X53.703Y14.696
X53.544Y15.093
G2X53.421Y15.706I1.464J0.613
G1Y16.082
G2X53.628Y16.866I1.587J0.000
G1X53.703Y17.016
X53.778Y17.166
X53.853Y17.317
X54.068Y17.673
X54.218Y17.898
X54.229Y17.918
G2X54.600Y18.444I1.455J-0.634
G1X54.675Y18.519
X54.751Y18.594
X54.826Y18.669
G2X55.221Y18.976I1.159J-1.084
G1X55.577Y19.190
X55.727Y19.266
X55.877Y19.341
X56.028Y19.416
X56.424Y19.575
X56.804Y19.681
X57.105Y19.756
G2X57.638Y19.848I0.533J-1.495
G1X59.260
G2X59.710Y19.923I0.483J-1.512
G1X59.806Y19.951
X60.186Y20.057
X60.323Y20.099
X60.707Y20.251
X60.924Y20.324
X60.951Y20.339
X60.982Y20.378
X61.132Y20.604
X61.143Y20.623
G2X61.450Y21.085I1.455J-0.634
G1X61.583Y21.280
G2X61.890Y21.675I1.391J-0.765
G1X61.965Y21.750
X62.040Y21.825
G2X63.199Y22.328I1.159J-1.084
G1X63.500
Y41.698
X63.275
X62.899Y41.743
X62.833Y41.728
Y41.632
G2X62.753Y41.135I-1.587J0.000
G2X62.551Y40.472I-1.583J0.121
G2X62.180Y39.946I-1.455J0.634
G1X62.104Y39.871
G2X61.740Y39.582I-1.159J1.084
G1X61.409Y39.339
X61.053Y39.124
X60.902Y39.049
X60.506Y38.890
X60.281Y38.815
G2X59.667Y38.692I-0.613J1.464
G1X59.517
G2X59.035Y38.767I0.000J1.588
G1X58.916
G2X58.303Y38.890I0.000J1.588
G1X58.077Y38.965
X57.852Y39.040
X57.706Y39.085
X57.326Y39.191
X56.930Y39.350
X56.779Y39.425
X56.423Y39.640
X56.403Y39.650
X56.047Y39.865
X56.028Y39.876
X55.877Y39.951
X55.521Y40.166
X55.502Y40.176
X55.351Y40.252
X54.995Y40.466
X54.770Y40.616
G2X54.375Y40.923I0.765J1.391
G1X54.300Y40.999
G2X53.993Y41.393I1.084J1.159
G2X53.646Y42.383I1.241J0.990
G1Y43.811
G2X53.739Y44.345I1.587J0.000
G1X53.845Y44.725
X54.004Y45.121
X54.079Y45.272
G2X54.450Y45.797I1.455J-0.634
G2X54.976Y46.169I1.159J-1.084
G1X55.230Y46.285
X55.217Y46.290
X55.121Y46.304
X54.858Y46.282
X54.257
G2X53.760Y46.362I0.000J1.588
G2X53.268Y46.480I0.121J1.583
G2X52.721Y46.736I0.388J1.539
G2X51.960Y46.038I-1.395J0.757
G1X51.810Y45.963
X51.659Y45.888
X51.509Y45.813
G2X50.725Y45.605I-0.784J1.380
G1X50.650
G2X49.866Y45.813I0.000J1.588
G2X49.340Y46.184I0.634J1.455
G1X49.265Y46.259
X49.190Y46.334
G2X48.735Y47.106I1.084J1.159
G2X48.612Y47.686I1.464J0.613
G2X48.536Y48.170I1.512J0.484
G1Y48.771
G2X48.659Y49.384I1.588J0.000
G1X48.818Y49.781
G2X49.190Y50.306I1.455J-0.634
G1X49.265Y50.381
X49.340Y50.457
G2X50.499Y50.960I1.159J-1.084
G1X50.875
X51.059Y50.949
X51.142Y51.122
X51.214Y51.338
X51.242Y51.434
X51.243Y51.476
X51.241Y51.551
Y53.173
X51.184Y53.423
X51.142Y53.559
X50.989Y53.944
X50.914Y54.170
X50.844Y54.373
X50.843Y54.375
X50.768Y54.450
X50.693Y54.525
X50.617Y54.600
X50.542Y54.675
X50.467Y54.751
X50.392Y54.826
X50.317Y54.901
X50.242Y54.976
X50.167Y55.051
G2X49.795Y55.577I1.084J1.159
G1X49.720Y55.727
X49.561Y56.123
X49.486Y56.349
G2X49.363Y56.962I1.464J0.613
G1Y57.006
G2X49.288Y57.488I1.512J0.483
G1Y58.089
G2X49.363Y58.572I1.587J0.000
G1Y58.575
X49.340Y58.588
G2X48.814Y58.959I0.634J1.455
G1X48.739Y59.034
G2X48.368Y59.560I1.084J1.159
G2X48.160Y60.344I1.380J0.784
G1Y60.419
G2X48.284Y61.032I1.588J0.000
G1X48.311Y61.127
Y61.471
G2X48.434Y62.084I1.588J0.000
G1X48.461Y62.179
Y62.373
G2X48.541Y62.870I1.588J0.000
G1X48.628Y63.282
G2X48.818Y63.833I1.570J-0.233
G2X49.126Y64.296I1.455J-0.634
G1X49.351Y64.596
G2X49.929Y65.174I1.374J-0.796
G2X50.392Y65.482I1.096J-1.148
G1X50.542Y65.557
X50.692Y65.632
X50.843Y65.707
X50.941Y65.758
Y66.130
G2X51.057Y66.727I1.587J0.000
G1X50.998Y66.849
X50.923Y66.999
X50.847Y67.150
X50.772Y67.300
X50.697Y67.450
X50.622Y67.601
G2X50.415Y68.385I1.380J0.784
G1Y69.512
G2X50.490Y69.996I1.588J0.000
G2X50.565Y70.445I1.587J-0.033
G1Y71.391
G2X50.772Y72.175I1.587J0.000
G1X50.847Y72.325
X51.014Y72.618
X51.148Y72.926
X51.223Y73.076
X51.265Y73.164
X51.365Y73.507
X51.524Y73.903
X51.599Y74.053
X51.674Y74.204
X51.889Y74.560
X51.900Y74.579
G2X52.271Y75.105I1.455J-0.634
G1X52.346Y75.180
G2X52.872Y75.551I1.159J-1.084
G1X53.022Y75.626
X53.409Y75.783
G2X53.949Y75.967I0.773J-1.387
G2X54.482Y76.059I0.533J-1.495
G1X54.601
X54.962Y76.130
X55.338Y76.205
X55.714Y76.280
X55.978Y76.343
X56.390Y76.430
G2X56.887Y76.510I0.497J-1.508
G1X57.006
G2X57.488Y76.585I0.483J-1.512
G1X57.864
G2X58.348Y76.510I0.000J-1.588
G2X58.812Y76.430I-0.033J-1.587
G1X59.174Y76.359
G2X59.624Y76.285I-0.033J-1.587
G1X59.667
G2X60.150Y76.209I0.000J-1.588
G1X60.193
G2X60.676Y76.134I0.000J-1.588
G1X60.731
X60.912Y76.228
X60.932Y76.239
X61.157Y76.389
X61.514Y76.603
X61.533Y76.614
G2X62.135Y76.913I0.990J-1.241
G1X62.361Y76.988
X62.741Y77.094
G2X63.275Y77.186I0.533J-1.495
G1X63.500
Y77.408
X63.362Y77.366
X63.136Y77.291
X62.911Y77.216
G2X62.298Y77.092I-0.613J1.464
G1X60.644
G2X60.162Y77.168I0.000J1.587
G1X60.118
G2X59.585Y77.260I0.000J1.587
G1X59.204Y77.366
X58.808Y77.525
X58.658Y77.600
G2X58.132Y77.971I0.634J1.455
G1X58.120Y77.982
X57.820Y78.208
G2X57.456Y78.497I0.796J1.374
G1X57.381Y78.572
G2X57.010Y79.098I1.084J1.159
G1X56.999Y79.118
X56.784Y79.474
X56.709Y79.624
G2X56.502Y80.408I1.380J0.784
G1Y80.859
G2X56.709Y81.643I1.588J0.000
G1X56.778Y81.782
G2X57.074Y82.375I1.537J-0.397
G2X57.381Y82.770I1.391J-0.765
G1X57.456Y82.845
X57.531Y82.920
X57.606Y82.996
G2X58.001Y83.302I1.159J-1.084
G1X58.226Y83.453
X58.583Y83.667
G2X59.334Y83.874I0.784J-1.380
G2X59.818Y83.950I0.484J-1.512
G1X60.419
G2X60.952Y83.857I0.000J-1.588
G1X61.253Y83.782
X61.633Y83.676
X61.859Y83.601
X62.255Y83.442
X62.405Y83.367
X62.556Y83.292
X62.706Y83.216
X62.856Y83.141
X63.007Y83.066
X63.157Y82.991
X63.307Y82.916
X63.457Y82.841
X63.500Y82.821
Y88.842
X63.496Y88.896
X63.442Y88.900
X0.058
X0.004Y88.896
X0.000Y88.842
Y0.058
X0.004Y0.004
X0.058Y0.000
X45.573
G0Z5.080
G0X42.764Y0.001
G1Z-7.000F300.0
G1X0.040F1000.0
X0.004Y0.004
X0.000Y0.058
Y2.224
X42.932
X42.937Y2.239
X43.026Y2.426
X43.097Y2.638
X43.198Y2.839
X43.326Y3.025
X43.478Y3.188
X43.554Y3.264
X43.629Y3.339
X43.786Y3.486
X43.963Y3.611
X44.154Y3.710
X44.392Y3.820
X44.234Y4.101
X44.142Y4.293
X44.092Y4.446
X0.000
Y6.669
X43.100
X43.096Y6.675
X42.946Y6.900
X42.796Y7.126
X42.675Y7.300
X42.577Y7.491
X42.506Y7.694
X42.463Y7.905
X42.449Y8.116
Y8.792
X42.454Y8.891
X0.000
Y11.114
X43.213
X43.253Y11.154
X43.328Y11.229
X43.403Y11.304
X43.478Y11.380
X43.554Y11.455
X43.711Y11.602
X43.888Y11.727
X44.079Y11.826
X44.289Y11.926
X44.512Y11.994
X44.742Y12.028
X44.904Y12.073
X45.071Y12.099
X45.239Y12.108
X45.765
X45.974Y12.094
X46.180Y12.053
X46.378Y11.985
X46.524Y11.941
X46.715Y11.900
X46.900Y11.837
X47.075Y11.751
X47.260Y11.655
X47.432Y11.536
X47.451Y11.525
X47.601Y11.450
X47.752Y11.375
X47.937Y11.279
X48.108Y11.160
X48.127Y11.150
X48.199Y11.114
X51.257
G0Z5.080
G0X52.172Y13.336
G1Z-7.000F300.0
G1X0.000F1000.0
Y15.559
X51.773
X51.768Y15.631
Y16.007
X51.781Y16.210
X51.820Y16.412
X51.886Y16.607
X51.975Y16.791
X52.074Y16.982
X52.199Y17.159
X52.346Y17.316
X52.421Y17.391
X52.496Y17.467
X52.571Y17.542
X52.646Y17.617
X52.722Y17.692
X52.797Y17.767
X52.805Y17.776
X52.808Y17.781
X0.000
Y20.004
X55.304
X55.363Y20.023
X55.502Y20.092
X55.712Y20.192
X55.935Y20.260
X56.165Y20.295
X56.350Y20.344
X56.540Y20.370
X56.703Y20.414
X56.869Y20.441
X57.037Y20.450
X57.156
X57.394Y20.506
X57.638Y20.525
X57.982
X58.205Y20.578
X58.432Y20.600
X58.683Y20.658
X58.984Y20.733
X59.284Y20.808
X59.487Y20.866
X59.697Y20.896
X59.806Y20.928
X59.974Y20.987
X60.148Y21.028
X60.460Y21.147
X60.462Y21.149
X60.537Y21.224
X60.548Y21.236
X60.652Y21.393
X60.774Y21.536
X60.877Y21.693
X60.999Y21.837
X61.130Y22.030
X61.288Y22.201
X61.300Y22.213
X61.309Y22.226
X0.000
Y24.449
X63.500
Y26.671
X0.000
Y28.894
X63.500
Y31.116
X0.000
Y33.339
X63.500
Y34.047
X63.300Y33.991
X63.095Y33.962
X62.933Y33.918
X62.766Y33.891
X62.598Y33.882
X61.997
X61.788Y33.896
X61.582Y33.938
X61.384Y34.006
X61.238Y34.050
X61.047Y34.090
X60.862Y34.154
X60.687Y34.240
X60.548Y34.308
X60.336Y34.379
X60.135Y34.481
X59.949Y34.609
X59.785Y34.761
X59.710Y34.836
X59.635Y34.912
X59.490Y35.067
X59.364Y35.244
X59.263Y35.439
X59.220Y35.561
X0.000
Y37.784
X57.483
X57.455Y37.790
X57.286Y37.803
X57.118Y37.834
X56.955Y37.882
X56.654Y37.957
X56.463Y37.998
X56.278Y38.062
X56.103Y38.147
X55.918Y38.243
X55.747Y38.362
X55.605Y38.450
X55.472Y38.553
X55.352Y38.669
X55.277Y38.744
X55.265Y38.755
X55.072Y38.887
X54.901Y39.045
X54.826Y39.120
X54.751Y39.195
X54.742Y39.203
X54.611Y39.268
X54.395Y39.341
X54.170Y39.416
X53.966Y39.482
X53.773Y39.575
X53.623Y39.650
X53.432Y39.750
X53.255Y39.875
X53.114Y40.006
X0.000
Y42.229
X52.068
Y42.308
X52.087Y42.553
X52.143Y42.791
Y42.834
X52.157Y43.043
X52.199Y43.250
X52.267Y43.448
X52.294Y43.543
X52.315Y43.772
X52.122Y43.640
X51.964Y43.508
X51.790Y43.397
X51.596Y43.264
X51.381Y43.161
X51.154Y43.090
X50.921Y43.055
X50.759Y43.011
X50.592Y42.984
X50.424Y42.975
X49.898
X49.695Y42.988
X49.493Y43.028
X49.298Y43.093
X49.114Y43.182
X48.923Y43.282
X48.746Y43.407
X48.588Y43.554
X48.513Y43.629
X48.438Y43.704
X48.291Y43.861
X48.166Y44.038
X48.067Y44.230
X47.976Y44.418
X47.965Y44.451
X0.000
Y46.674
X46.746
X46.699Y46.833
X46.668Y47.012
X46.657Y47.193
Y47.869
X46.671Y48.078
X46.713Y48.284
X46.781Y48.483
X46.825Y48.628
X46.892Y48.896
X0.000
Y51.119
X47.198
X47.255Y51.234
X47.385Y51.421
X47.485Y51.617
X47.612Y51.798
X47.762Y51.959
X47.837Y52.035
X47.912Y52.110
X48.070Y52.257
X48.247Y52.382
X48.438Y52.481
X48.621Y52.570
X48.816Y52.635
X49.018Y52.675
X49.222Y52.688
X50.145
X50.189Y52.861
Y53.023
X50.144Y53.201
X50.125Y53.341
X0.000
Y55.564
X48.713
X48.650Y55.694
X48.584Y55.898
X48.527Y56.057
X48.488Y56.222
X48.466Y56.390
X48.422Y56.552
X48.395Y56.719
X48.386Y56.887
Y57.156
X48.330Y57.394
X48.311Y57.638
Y57.751
X48.239Y57.786
X46.049
X46.098Y57.832
X46.243Y57.987
X46.369Y58.165
X46.470Y58.359
X46.543Y58.566
X46.587Y58.778
X46.601Y58.991
Y59.066
X46.587Y59.279
X46.543Y59.492
X46.470Y59.698
X46.369Y59.893
X46.287Y60.009
X46.456
X46.446Y60.060
X46.432Y60.269
Y60.344
X46.446Y60.553
X46.487Y60.759
X46.555Y60.957
X46.621Y61.161
X46.714Y61.353
X46.798Y61.519
X46.901Y61.674
X47.021Y61.816
X47.125Y61.973
X47.247Y62.116
X47.323Y62.231
G0Z5.080
G0X43.599Y57.786
G1Z-7.000F300.0
G1X0.000F1000.0
Y60.009
X43.388
G0Z5.080
G0X47.323Y62.231
G1Z-7.000F300.0
G1X0.000F1000.0
Y64.454
X48.077
X48.166Y64.626
X48.291Y64.803
X48.438Y64.960
X48.513Y65.035
X48.588Y65.110
X48.664Y65.186
X48.739Y65.261
X48.814Y65.336
X48.889Y65.411
X48.964Y65.486
X49.136Y65.644
X49.328Y65.776
X49.455Y65.884
X49.592Y65.979
X49.739Y66.059
Y66.280
X49.755Y66.508
X49.623Y66.657
X49.610Y66.676
X0.000
Y68.899
X49.220
X49.223Y68.941
X49.254Y69.120
X49.305Y69.294
X49.380Y69.594
X49.455Y69.895
X49.495Y70.084
X49.557Y70.266
X49.530Y70.406
X49.479Y70.580
X49.448Y70.759
X49.438Y70.940
Y71.121
X0.000
Y73.344
X50.209
X50.242Y73.377
X50.277Y73.413
X50.390Y73.666
X50.453Y73.859
X50.540Y74.042
X50.613Y74.258
X50.679Y74.462
X50.772Y74.655
X50.868Y74.840
X50.987Y75.011
X50.998Y75.030
X51.093Y75.215
X51.212Y75.387
X51.300Y75.529
X51.330Y75.566
X0.000
Y77.789
X56.875
X56.724Y77.890
X56.550Y78.001
X56.392Y78.133
X56.197Y78.266
X56.055Y78.354
X55.923Y78.457
X55.803Y78.572
X55.656Y78.730
X55.531Y78.907
X55.431Y79.098
X55.356Y79.248
X55.281Y79.399
X55.206Y79.549
X55.131Y79.699
X55.042Y79.883
X54.999Y80.011
X0.000
Y82.234
X55.161
X55.122Y82.350
X55.054Y82.548
X55.013Y82.754
X54.999Y82.963
Y83.339
X55.012Y83.543
X55.052Y83.745
X55.117Y83.940
X55.206Y84.123
X55.305Y84.314
X55.405Y84.456
X0.000
Y86.678
G0Z5.080
G0X63.500Y84.456
G1Z-7.000F300.0
G1X61.476F1000.0
G0Z5.080
G0X0.000Y86.678
G1Z-7.000F300.0
G1X61.563F1000.0
X61.505Y86.795
X61.435Y87.009
X61.367Y87.207
X61.325Y87.413
X61.311Y87.622
Y88.449
X61.328Y88.677
X61.376Y88.899
X0.040
G0Z5.080
G0X44.713Y60.729
G1Z-7.000F300.0
G1X44.938F1000.0
G2X46.098Y60.226I0.000J-1.588
G2X46.601Y59.066I-1.084J-1.159
G1Y58.991
G2X46.098Y57.832I-1.588J0.000
G2X44.938Y57.328I-1.159J1.084
G1X44.713
G2X43.126Y58.916I0.000J1.587
G1Y59.141
G2X44.713Y60.729I1.587J0.000
G0Z5.080
G0X42.764Y0.000
G1Z-7.000F300.0
G2X42.675Y0.526I1.498J0.526F1000.0
G1Y1.127
G2X42.767Y1.661I1.588J0.000
G1X42.873Y2.041
X43.026Y2.426
G2X43.478Y3.188I1.537J-0.397
G1X43.554Y3.264
X43.629Y3.339
G2X44.154Y3.710I1.159J-1.084
G1X44.392Y3.820
X44.234Y4.101
X44.075Y4.497
G2X43.952Y5.110I1.464J0.613
G1Y5.379
X43.950Y5.386
X43.848Y5.548
X43.698Y5.773
X43.547Y5.999
X43.336Y6.347
X43.096Y6.675
X42.946Y6.900
X42.796Y7.126
G2X42.449Y8.116I1.241J0.990
G1Y8.792
X42.456Y8.943
X42.449Y9.093
Y9.619
G2X42.656Y10.403I1.588J0.000
G2X43.028Y10.929I1.455J-0.634
G1X43.103Y11.004
X43.178Y11.079
X43.253Y11.154
X43.328Y11.229
X43.403Y11.304
X43.478Y11.380
X43.554Y11.455
G2X44.079Y11.826I1.159J-1.084
G2X44.742Y12.028I0.784J-1.380
G2X45.239Y12.108I0.497J-1.508
G1X45.765
G2X46.378Y11.985I0.000J-1.588
G1X46.524Y11.941
G2X47.075Y11.751I-0.233J-1.570
G1X47.432Y11.536
X47.451Y11.525
X47.601Y11.450
X47.752Y11.375
X48.108Y11.160
X48.127Y11.150
X48.278Y11.074
X48.634Y10.860
X48.653Y10.849
X48.804Y10.774
X49.160Y10.559
X49.385Y10.409
X49.611Y10.259
X49.836Y10.108
X49.856Y10.098
X50.006Y10.022
X50.362Y9.808
X50.588Y9.657
X50.813Y9.507
G2X51.208Y9.200I-0.765J-1.391
G1X51.220Y9.189
X51.318Y9.128
X51.365Y9.255
X51.396Y9.364
X51.484Y9.777
X51.488Y9.803
X51.449Y9.887
G2X51.241Y10.671I1.380J0.784
G1Y10.896
G2X51.365Y11.510I1.587J0.000
G1X51.440Y11.735
X51.515Y11.961
G2X51.814Y12.563I1.539J-0.388
G1X52.074Y12.913
G2X52.275Y13.559I1.582J-0.137
G1X52.415Y13.814
X52.264Y14.039
X52.050Y14.396
G2X51.843Y15.147I1.380J0.784
G2X51.768Y15.631I1.512J0.484
G1Y16.007
G2X51.975Y16.791I1.587J0.000
G2X52.346Y17.316I1.455J-0.634
G1X52.421Y17.391
X52.496Y17.467
X52.571Y17.542
X52.646Y17.617
X52.722Y17.692
X52.797Y17.767
X52.805Y17.776
X53.016Y18.124
X53.259Y18.455
G2X53.548Y18.819I1.374J-0.796
G1X53.623Y18.894
X53.699Y18.970
X53.774Y19.045
X53.849Y19.120
X53.924Y19.195
X53.999Y19.270
G2X54.525Y19.641I1.159J-1.084
G1X54.544Y19.652
G2X55.146Y19.951I0.990J-1.241
G1X55.363Y20.023
X55.502Y20.092
G2X56.165Y20.295I0.784J-1.380
G1X56.540Y20.370
G2X57.037Y20.450I0.497J-1.508
G1X57.156
G2X57.638Y20.525I0.483J-1.512
G1X57.982
G2X58.432Y20.600I0.483J-1.512
G1X58.683Y20.658
X58.984Y20.733
X59.284Y20.808
X59.697Y20.896
X59.806Y20.928
X60.148Y21.028
X60.460Y21.147
X60.462Y21.149
X60.537Y21.224
X60.548Y21.236
X60.774Y21.536
X60.999Y21.837
G2X61.288Y22.201I1.374J-0.796
G1X61.300Y22.213
G2X61.589Y22.577I1.374J-0.796
G1X61.664Y22.652
X61.739Y22.727
X61.814Y22.802
X61.890Y22.877
X61.965Y22.952
G2X62.490Y23.324I1.159J-1.084
G2X63.275Y23.531I0.784J-1.380
G1X63.500
Y34.047
X63.095Y33.962
G2X62.598Y33.882I-0.497J1.508
G1X61.997
G2X61.384Y34.006I0.000J1.588
G1X61.238Y34.050
G2X60.687Y34.240I0.233J1.570
G1X60.548Y34.308
G2X59.785Y34.761I0.397J1.537
G1X59.710Y34.836
X59.635Y34.912
G2X59.132Y36.071I1.084J1.159
G1Y36.372
G2X59.339Y37.156I1.587J0.000
G2X59.598Y37.565I1.455J-0.634
G1X58.841
G2X58.344Y37.644I0.000J1.588
G1X57.982Y37.715
X57.939
G2X57.455Y37.790I0.000J1.588
G2X56.955Y37.882I0.033J1.587
G1X56.654Y37.957
G2X56.103Y38.147I0.233J1.570
G1X55.747Y38.362
G2X55.352Y38.669I0.765J1.391
G1X55.277Y38.744
X55.265Y38.755
G2X54.901Y39.045I0.796J1.374
G1X54.826Y39.120
X54.751Y39.195
X54.742Y39.203
X54.611Y39.268
X54.395Y39.341
X54.170Y39.416
X53.773Y39.575
X53.623Y39.650
G2X53.097Y40.022I0.634J1.455
G1X53.022Y40.097
X52.947Y40.172
X52.872Y40.247
X52.797Y40.322
G2X52.490Y40.717I1.084J1.159
G1X52.275Y41.073
G2X52.068Y41.857I1.380J0.784
G1Y42.308
G2X52.143Y42.791I1.587J0.000
G1Y42.834
G2X52.267Y43.448I1.587J0.000
G1X52.294Y43.543
X52.315Y43.772
X52.122Y43.640
X51.790Y43.397
G2X50.921Y43.055I-0.990J1.241
G2X50.424Y42.975I-0.497J1.508
G1X49.898
G2X49.114Y43.182I0.000J1.588
G2X48.588Y43.554I0.634J1.455
G1X48.513Y43.629
X48.438Y43.704
G2X48.067Y44.230I1.084J1.159
G1X47.910Y44.617
X47.842Y44.756
X47.766Y44.906
X47.691Y45.056
X47.620Y45.198
X47.612Y45.207
X47.536Y45.282
G2X47.247Y45.646I1.084J1.159
G2X46.940Y46.108I1.148J1.096
G2X46.750Y46.659I1.380J0.784
G2X46.657Y47.193I1.495J0.533
G1Y47.869
G2X46.781Y48.483I1.588J0.000
G1X46.825Y48.628
X46.900Y48.929
X47.006Y49.309
X47.033Y49.404
Y49.416
G2X46.958Y49.898I1.512J0.483
G1Y50.199
G2X47.081Y50.812I1.588J0.000
G2X47.385Y51.421I1.539J-0.388
G2X47.762Y51.959I1.461J-0.621
G1X47.837Y52.035
X47.912Y52.110
G2X48.438Y52.481I1.159J-1.084
G2X49.222Y52.688I0.784J-1.380
G1X50.145
X50.189Y52.861
Y53.023
X50.119Y53.384
G2X50.039Y53.881I1.508J0.497
G1Y53.934
X49.960Y53.993
G2X49.565Y54.300I0.765J1.391
G1X49.490Y54.375
X49.415Y54.450
X49.340Y54.525
G2X48.969Y55.051I1.084J1.159
G1X48.894Y55.201
X48.818Y55.351
X48.743Y55.502
X48.584Y55.898
G2X48.466Y56.390I1.464J0.613
G2X48.386Y56.887I1.508J0.497
G1Y57.156
G2X48.311Y57.638I1.512J0.483
G1Y57.751
X48.137Y57.836
X47.987Y57.911
G2X47.461Y58.283I0.634J1.455
G1X47.386Y58.358
X47.311Y58.433
X47.236Y58.508
G2X46.865Y59.034I1.084J1.159
G1X46.854Y59.053
G2X46.555Y59.655I1.241J0.990
G2X46.432Y60.269I1.464J0.613
G1Y60.344
G2X46.555Y60.957I1.588J0.000
G1X46.714Y61.353
G2X47.021Y61.816I1.455J-0.634
G1X47.247Y62.116
X47.472Y62.417
X47.491Y62.449
X47.559Y62.780
Y63.049
G2X47.766Y63.833I1.588J0.000
G1X47.842Y63.984
X47.917Y64.134
X47.992Y64.284
X48.067Y64.434
G2X48.438Y64.960I1.455J-0.634
G1X48.513Y65.035
X48.588Y65.110
X48.664Y65.186
X48.739Y65.261
X48.814Y65.336
X48.889Y65.411
X48.964Y65.486
G2X49.328Y65.776I1.159J-1.084
G2X49.739Y66.059I1.096J-1.148
G1Y66.280
X49.755Y66.508
G2X49.420Y66.999I1.120J1.125
G2X49.212Y67.783I1.380J0.784
G1Y68.760
G2X49.305Y69.294I1.588J0.000
G1X49.380Y69.594
X49.455Y69.895
X49.557Y70.266
X49.530Y70.406
G2X49.438Y70.940I1.495J0.533
G1Y71.315
G2X49.513Y71.798I1.588J0.000
G1Y71.917
G2X49.720Y72.701I1.588J0.000
G2X50.091Y73.226I1.455J-0.634
G1X50.167Y73.301
X50.242Y73.377
X50.277Y73.413
X50.390Y73.666
X50.540Y74.042
X50.613Y74.258
X50.772Y74.655
X50.987Y75.011
X50.998Y75.030
X51.212Y75.387
G2X51.519Y75.781I1.391J-0.765
G1X51.594Y75.857
G2X51.989Y76.163I1.159J-1.084
G1X52.345Y76.378
G2X52.963Y76.576I0.784J-1.380
G2X53.656Y76.735I0.693J-1.428
G1X54.751
G2X55.201Y76.810I0.483J-1.512
G2X55.685Y76.886I0.484J-1.512
G1X55.878
G2X56.328Y76.961I0.483J-1.512
G2X56.812Y77.036I0.484J-1.512
G1X57.006
G2X57.488Y77.111I0.483J-1.512
G1X58.303
X58.228Y77.140
X57.843Y77.293
X57.456Y77.450
X57.305Y77.525
X56.949Y77.740
X56.724Y77.890
X56.392Y78.133
X56.197Y78.266
G2X55.803Y78.572I0.765J1.391
G2X55.431Y79.098I1.084J1.159
G1X55.356Y79.248
X55.281Y79.399
X55.206Y79.549
X55.131Y79.699
G2X54.924Y80.483I1.380J0.784
G1Y80.784
G2X55.016Y81.318I1.587J0.000
G1X55.122Y81.698
X55.233Y82.003
X55.197Y82.125
X55.122Y82.350
G2X54.999Y82.963I1.464J0.613
G1Y83.339
G2X55.206Y84.123I1.587J0.000
G2X55.577Y84.649I1.455J-0.634
G2X56.103Y85.020I1.159J-1.084
G1X56.499Y85.179
G2X57.112Y85.302I0.613J-1.464
G1X57.864
G2X58.477Y85.179I0.000J-1.587
G1X58.873Y85.020
X58.932Y84.993
G2X59.379Y84.878I-0.167J-1.579
G1X59.488Y84.847
X59.851Y84.776
G2X60.301Y84.701I-0.033J-1.587
G2X60.766Y84.621I-0.033J-1.587
G1X61.178Y84.534
X61.558Y84.428
X61.955Y84.269
X62.105Y84.193
X62.255Y84.118
X62.405Y84.043
X62.556Y83.968
X62.706Y83.893
X63.062Y83.678
X63.082Y83.667
X63.438Y83.453
X63.457Y83.442
X63.500Y83.423
Y85.584
X63.275
G2X62.490Y85.791I0.000J1.587
G2X61.965Y86.162I0.634J1.455
G1X61.890Y86.238
G2X61.435Y87.009I1.084J1.159
G2X61.311Y87.622I1.464J0.613
G1Y88.449
G2X61.377Y88.900I1.588J0.000
G1X0.058
X0.004Y88.896
X0.000Y88.842
Y0.058
X0.004Y0.004
X0.058Y0.000
X42.764
G0Z5.080
G0X39.884Y0.001
G1Z-8.000F300.0
G1X0.040F1000.0
X0.004Y0.004
X0.000Y0.058
Y2.224
X40.635
X40.698Y2.287
X40.773Y2.362
X40.775Y2.363
X40.846Y2.572
X40.947Y2.770
X41.074Y2.952
X41.224Y3.113
X41.299Y3.188
X41.374Y3.264
X41.449Y3.339
X41.525Y3.414
X41.600Y3.489
X41.675Y3.564
X41.750Y3.639
X41.761Y3.651
X41.892Y3.844
X42.051Y4.015
X42.062Y4.027
X42.193Y4.220
X42.351Y4.391
X42.407Y4.446
X0.000
Y6.669
X41.074
X41.003Y6.806
X40.932Y7.004
X40.888Y7.207
X40.837Y7.380
X40.806Y7.559
X40.796Y7.740
Y7.934
X40.742Y8.156
X40.721Y8.384
X40.665Y8.623
X40.646Y8.867
Y8.891
X0.000
Y11.114
X41.354
X41.461Y11.241
X41.472Y11.261
Y11.466
X41.416Y11.704
X41.397Y11.949
Y12.174
X41.413Y12.395
X41.461Y12.618
X41.542Y12.837
X41.657Y13.044
X41.801Y13.231
X41.909Y13.336
X0.000
Y15.559
G0Z5.080
G0X50.545Y13.336
G1Z-8.000F300.0
G1X46.230F1000.0
G0Z5.080
G0X0.000Y15.559
G1Z-8.000F300.0
G1X50.490F1000.0
Y16.007
X50.504Y16.215
X50.545Y16.422
X50.613Y16.620
X50.677Y16.817
X50.766Y17.005
X50.831Y17.203
X50.923Y17.392
X51.022Y17.583
X51.147Y17.760
X51.167Y17.781
X0.000
Y20.004
X53.159
X53.255Y20.094
X53.432Y20.218
X53.623Y20.318
X53.773Y20.393
X53.924Y20.468
X54.074Y20.543
X54.224Y20.618
X54.399Y20.704
X54.585Y20.768
X54.775Y20.808
X54.921Y20.852
X55.146Y20.928
X55.345Y20.996
X55.551Y21.037
X55.760Y21.051
X55.803
X56.042Y21.107
X56.286Y21.126
X56.555
X56.793Y21.182
X57.037Y21.201
X57.306
X57.545Y21.257
X57.789Y21.276
X57.832
X58.011Y21.322
X58.194Y21.347
X58.458Y21.409
X58.758Y21.485
X59.059Y21.560
X59.359Y21.635
X59.622Y21.704
X59.834Y21.793
X59.996Y21.916
X60.172Y22.138
X60.233Y22.226
X0.000
Y24.449
X60.346
X60.348Y24.476
X60.387Y24.678
X60.452Y24.873
X60.542Y25.057
X60.641Y25.248
X60.766Y25.425
X60.913Y25.583
X60.988Y25.658
X61.063Y25.733
X61.234Y25.891
X61.427Y26.022
X61.439Y26.033
X61.559Y26.149
X61.692Y26.252
X61.834Y26.340
X62.059Y26.491
X62.230Y26.610
X62.350Y26.671
X0.000
Y28.894
X63.500
Y31.116
X0.000
Y33.339
X58.136
X58.091Y33.362
X57.914Y33.487
X57.756Y33.634
X57.681Y33.709
X57.565Y33.830
X57.463Y33.962
X57.374Y34.104
X57.247Y34.290
X57.146Y34.492
X57.076Y34.706
X57.001Y34.932
X56.933Y35.130
X56.891Y35.336
X56.878Y35.545
Y35.561
X0.000
Y37.784
X54.806
X54.621Y37.910
X54.450Y38.068
X54.375Y38.143
X54.363Y38.154
X54.331Y38.173
X54.182Y38.166
X53.881
X53.672Y38.180
X53.466Y38.221
X53.268Y38.289
X53.064Y38.355
X52.872Y38.448
X52.686Y38.544
X52.515Y38.663
X52.496Y38.674
X52.304Y38.773
X52.128Y38.898
X51.970Y39.045
X51.895Y39.120
X51.820Y39.195
X51.745Y39.270
X51.598Y39.428
X51.473Y39.604
X51.374Y39.796
X51.298Y39.946
X51.269Y40.006
X0.000
Y42.229
X47.650
X47.629Y42.240
X47.436Y42.381
X47.266Y42.551
X47.124Y42.744
X47.015Y42.952
X46.940Y43.102
X46.865Y43.253
X46.789Y43.403
X46.714Y43.553
X46.625Y43.737
X46.560Y43.932
X46.520Y44.134
X46.507Y44.337
Y44.381
X46.489Y44.451
X0.000
Y46.674
X45.314
X45.305Y46.817
Y47.569
X45.315Y47.749
X45.346Y47.928
X45.397Y48.102
X45.438Y48.293
X45.501Y48.478
X45.587Y48.653
X45.662Y48.804
X45.708Y48.896
X0.000
Y51.119
X45.391
X45.393Y51.154
X45.433Y51.356
X45.498Y51.551
X45.587Y51.734
X45.662Y51.885
X45.762Y52.076
X45.886Y52.253
X46.033Y52.410
X46.109Y52.486
X46.184Y52.561
X46.259Y52.636
X46.334Y52.711
X46.409Y52.786
X46.484Y52.861
X46.559Y52.936
X46.725Y53.090
X46.912Y53.219
X47.117Y53.321
X47.179Y53.341
X0.000
Y55.564
X43.523
X43.511Y55.568
X43.328Y55.657
X43.136Y55.756
X42.960Y55.881
X42.802Y56.028
X42.727Y56.103
X42.652Y56.178
X42.577Y56.254
X42.501Y56.329
X42.386Y56.449
X42.283Y56.581
X42.195Y56.724
X42.062Y56.918
X41.913Y57.099
X41.770Y57.151
X41.567Y57.217
X41.374Y57.310
X41.189Y57.406
X41.018Y57.525
X40.792Y57.675
X40.650Y57.763
X40.620Y57.786
X0.000
Y60.009
X38.328
X38.316Y60.193
Y60.569
X38.330Y60.778
X38.371Y60.984
X38.439Y61.183
X38.505Y61.386
X38.598Y61.579
X38.674Y61.729
X38.773Y61.920
X38.898Y62.097
X39.023Y62.231
X0.000
Y64.454
G0Z5.080
G0X44.011Y62.231
G1Z-8.000F300.0
G1X43.055F1000.0
G0Z5.080
G0X0.000Y64.454
G1Z-8.000F300.0
G1X46.838F1000.0
X46.885Y64.544
X47.004Y64.716
X47.092Y64.858
X47.195Y64.990
X47.311Y65.110
X47.386Y65.186
X47.461Y65.261
X47.472Y65.272
X47.580Y65.435
X47.708Y65.584
X47.852Y65.715
X47.721Y65.898
X47.616Y66.098
X47.541Y66.248
X47.466Y66.398
X47.377Y66.582
X47.345Y66.676
X0.000
Y68.899
X47.889
X47.906Y68.924
X48.056Y69.149
X48.245Y69.421
X48.284Y69.524
X48.359Y69.749
X48.434Y69.975
X48.489Y70.151
X48.434Y70.326
X48.369Y70.513
X48.328Y70.707
X48.277Y70.880
X48.246Y71.059
X48.242Y71.121
X0.000
Y73.344
X48.863
X48.900Y73.388
X49.031Y73.581
X49.190Y73.752
X49.265Y73.828
X49.340Y73.903
X49.415Y73.978
X49.490Y74.053
X49.525Y74.089
X49.530Y74.103
X49.570Y74.290
X49.631Y74.471
X49.714Y74.643
X49.777Y74.836
X49.864Y75.019
X49.937Y75.235
X50.012Y75.461
X50.046Y75.566
X0.000
Y77.789
X55.408
X55.371Y77.815
X55.351Y77.826
X55.201Y77.901
X55.016Y77.996
X54.845Y78.115
X54.825Y78.126
X54.634Y78.225
X54.457Y78.350
X54.300Y78.497
X54.184Y78.618
X54.081Y78.750
X53.993Y78.892
X53.843Y79.118
X53.724Y79.289
X53.628Y79.474
X53.553Y79.624
X53.464Y79.808
X53.398Y80.003
X53.397Y80.011
X0.000
Y82.234
X53.782
X53.772Y82.266
X53.683Y82.453
X53.619Y82.651
X53.544Y82.876
X53.476Y83.074
X53.435Y83.280
X53.421Y83.489
Y84.015
X53.435Y84.228
X53.479Y84.441
X53.484Y84.456
X0.000
Y86.678
X60.436
X60.381Y86.788
X60.310Y87.000
X60.221Y87.188
X60.157Y87.385
X60.082Y87.610
X60.014Y87.808
X59.972Y88.015
X59.959Y88.224
Y88.299
X59.972Y88.503
X60.012Y88.706
X60.076Y88.899
X0.040
G0Z5.080
G0X45.600Y55.564
G1Z-8.000F300.0
G1X47.735F1000.0
G0Z5.080
G0X39.884Y0.000
G1Z-8.000F300.0
G2X39.819Y0.451I1.522J0.451F1000.0
G1Y0.751
G2X40.322Y1.911I1.588J0.000
G1X40.397Y1.986
X40.472Y2.061
X40.548Y2.136
X40.623Y2.212
X40.698Y2.287
X40.773Y2.362
X40.775Y2.363
G2X41.224Y3.113I1.534J-0.410
G1X41.299Y3.188
X41.374Y3.264
X41.449Y3.339
X41.525Y3.414
X41.600Y3.489
X41.675Y3.564
X41.750Y3.639
X41.761Y3.651
G2X42.051Y4.015I1.374J-0.796
G1X42.062Y4.027
G2X42.351Y4.391I1.374J-0.796
G1X42.426Y4.466
X42.501Y4.541
X42.577Y4.616
X42.652Y4.691
X42.730Y4.769
X42.680Y5.052
X42.577Y5.153
X42.565Y5.164
X42.264Y5.390
G2X41.900Y5.679I0.796J1.374
G1X41.825Y5.754
X41.750Y5.829
X41.675Y5.904
X41.600Y5.980
X41.525Y6.055
G2X41.218Y6.450I1.084J1.159
G2X40.888Y7.207I1.241J0.990
G2X40.796Y7.740I1.495J0.533
G1Y7.934
G2X40.721Y8.384I1.512J0.483
G2X40.646Y8.867I1.512J0.484
G1Y9.318
G2X40.725Y9.815I1.587J0.000
G2X41.067Y10.684I1.583J-0.121
G1X41.218Y10.910
X41.461Y11.241
X41.472Y11.261
Y11.466
G2X41.397Y11.949I1.512J0.483
G1Y12.174
G2X42.351Y13.629I1.588J0.000
G1X42.747Y13.788
G2X43.360Y13.912I0.613J-1.464
G1X43.811
G2X44.485Y13.761I0.000J-1.588
G1X44.563
G2X45.176Y13.638I0.000J-1.588
G1X45.401Y13.563
X45.547Y13.519
X45.848Y13.444
G2X46.399Y13.254I-0.233J-1.570
G1X46.549Y13.179
X46.699Y13.103
X47.056Y12.889
X47.075Y12.878
X47.432Y12.663
X47.657Y12.513
X47.676Y12.502
X47.815Y12.434
X48.032Y12.361
X48.177Y12.316
X48.478Y12.241
X48.858Y12.135
X49.084Y12.060
X49.480Y11.901
X49.556Y11.865
X49.720Y12.282
X49.795Y12.432
G2X50.167Y12.958I1.455J-0.634
G1X50.242Y13.033
X50.317Y13.108
X50.392Y13.183
X50.467Y13.258
X50.542Y13.333
X50.617Y13.409
G2X50.981Y13.698I1.159J-1.084
G1X50.993Y13.709
X50.995Y13.711
X51.037Y13.846
X50.912Y14.039
G2X50.565Y14.997I1.241J0.990
G2X50.490Y15.480I1.512J0.484
G1Y16.007
G2X50.613Y16.620I1.587J0.000
G1X50.766Y17.005
X50.923Y17.392
G2X51.294Y17.917I1.455J-0.634
G2X51.689Y18.224I1.159J-1.084
G1X51.883Y18.357
X51.895Y18.368
X52.044Y18.508
X52.189Y18.725
X52.200Y18.744
X52.415Y19.101
X52.565Y19.326
G2X52.872Y19.721I1.391J-0.765
G1X52.947Y19.796
X53.022Y19.871
X53.097Y19.946
G2X53.623Y20.318I1.159J-1.084
G1X53.773Y20.393
X53.924Y20.468
X54.074Y20.543
X54.224Y20.618
G2X54.775Y20.808I0.784J-1.380
G1X54.921Y20.852
X55.146Y20.928
G2X55.760Y21.051I0.613J-1.464
G1X55.803
G2X56.286Y21.126I0.483J-1.512
G1X56.555
G2X57.037Y21.201I0.483J-1.512
G1X57.306
G2X57.789Y21.276I0.483J-1.512
G1X57.832
X58.194Y21.347
X58.458Y21.409
X58.758Y21.485
X59.059Y21.560
X59.359Y21.635
X59.622Y21.704
X59.834Y21.793
X59.996Y21.916
X60.172Y22.138
X60.305Y22.332
X60.456Y22.558
X60.563Y22.727
X60.533Y22.833
G2X60.414Y23.325I1.464J0.613
G2X60.334Y23.822I1.508J0.497
G1Y24.273
G2X60.542Y25.057I1.587J0.000
G2X60.913Y25.583I1.455J-0.634
G1X60.988Y25.658
X61.063Y25.733
G2X61.427Y26.022I1.159J-1.084
G1X61.439Y26.033
G2X61.834Y26.340I1.159J-1.084
G1X62.059Y26.491
X62.415Y26.705
G2X63.199Y26.912I0.784J-1.380
G1X63.500
Y32.905
X63.231
G2X62.781Y32.831I-0.483J1.512
G2X62.298Y32.755I-0.484J1.512
G1X61.772
G2X61.289Y32.830I0.000J1.588
G1X61.170
G2X60.688Y32.905I0.000J1.588
G1X59.367
G2X58.583Y33.113I0.000J1.588
G1X58.432Y33.188
X58.282Y33.263
G2X57.756Y33.634I0.634J1.455
G1X57.681Y33.709
G2X57.374Y34.104I1.084J1.159
G2X57.076Y34.706I1.241J0.990
G1X57.001Y34.932
G2X56.878Y35.545I1.464J0.613
G1Y35.620
G2X57.001Y36.233I1.588J0.000
G1X57.153Y36.618
X57.226Y36.835
X57.241Y36.888
X56.962
G2X56.349Y37.012I0.000J1.588
G1X56.203Y37.056
X55.823Y37.162
G2X55.221Y37.460I0.388J1.539
G2X54.826Y37.767I0.765J1.391
G1X54.814Y37.778
G2X54.450Y38.068I0.796J1.374
G1X54.375Y38.143
X54.363Y38.154
X54.331Y38.173
X54.182Y38.166
X53.881
G2X53.268Y38.289I0.000J1.588
G1X52.872Y38.448
X52.515Y38.663
X52.496Y38.674
G2X51.970Y39.045I0.634J1.455
G1X51.895Y39.120
X51.820Y39.195
X51.745Y39.270
G2X51.374Y39.796I1.084J1.159
G1X51.298Y39.946
X51.139Y40.342
X51.064Y40.568
X50.989Y40.793
X50.883Y41.174
G2X50.791Y41.685I1.495J0.533
G1X50.349Y41.623
X49.748
G2X49.265Y41.698I0.000J1.588
G1X49.147
G2X48.533Y41.821I0.000J1.588
G1X48.137Y41.980
X47.987Y42.055
X47.837Y42.130
G2X47.015Y42.952I0.634J1.455
G1X46.940Y43.102
X46.865Y43.253
X46.789Y43.403
X46.714Y43.553
G2X46.507Y44.337I1.380J0.784
G1Y44.381
X46.437Y44.742
X46.411Y44.829
X46.409Y44.831
X46.334Y44.906
G2X46.045Y45.270I1.084J1.159
G1X46.033Y45.282
G2X45.727Y45.677I1.084J1.159
G1X45.512Y46.033
G2X45.305Y46.817I1.380J0.784
G1Y47.569
G2X45.397Y48.102I1.588J0.000
G2X45.587Y48.653I1.570J-0.233
G1X45.662Y48.804
X45.731Y48.942
X45.804Y49.159
X45.833Y49.259
X45.779Y49.477
X45.737Y49.565
X45.662Y49.715
X45.587Y49.866
G2X45.380Y50.650I1.380J0.784
G1Y50.950
G2X45.587Y51.734I1.587J0.000
G1X45.662Y51.885
G2X46.033Y52.410I1.455J-0.634
G1X46.109Y52.486
X46.184Y52.561
X46.259Y52.636
X46.334Y52.711
X46.409Y52.786
X46.484Y52.861
X46.559Y52.936
G2X47.331Y53.391I1.159J-1.084
G2X47.912Y53.514I0.613J-1.464
G2X48.395Y53.590I0.484J-1.512
G1X49.030
X49.000Y53.754
X48.814Y53.924
X48.739Y53.999
X48.664Y54.074
X48.588Y54.149
X48.513Y54.225
X48.438Y54.300
X48.363Y54.375
X48.288Y54.450
G2X47.833Y55.222I1.084J1.159
G1X47.727Y55.602
X47.683Y55.748
G2X47.560Y56.328I1.464J0.613
G1X47.491Y56.668
X47.451Y56.629
G2X47.087Y56.340I-1.159J1.084
G1X46.755Y56.097
G2X46.162Y55.801I-0.990J1.241
G1X46.023Y55.732
X45.627Y55.573
G2X45.014Y55.450I-0.613J1.464
G1X44.638
X44.563Y55.452
X44.488Y55.450
X44.112
G2X43.328Y55.657I0.000J1.587
G2X42.802Y56.028I0.634J1.455
G1X42.727Y56.103
X42.652Y56.178
X42.577Y56.254
X42.501Y56.329
G2X42.195Y56.724I1.084J1.159
G1X42.062Y56.918
X41.913Y57.099
X41.770Y57.151
X41.374Y57.310
X41.018Y57.525
X40.792Y57.675
G2X40.397Y57.982I0.765J1.391
G1X40.322Y58.057
X40.247Y58.132
X40.172Y58.207
X40.061Y58.322
X40.046Y58.336
X39.741Y58.429
G2X38.970Y58.884I0.388J1.539
G1X38.894Y58.959
X38.819Y59.034
G2X38.316Y60.193I1.084J1.159
G1Y60.569
G2X38.439Y61.183I1.588J0.000
G1X38.598Y61.579
X38.674Y61.729
G2X39.045Y62.255I1.455J-0.634
G2X39.570Y62.626I1.159J-1.084
G1X39.721Y62.701
G2X40.272Y62.891I0.784J-1.380
G2X40.805Y62.983I0.533J-1.495
G1X41.181
G2X41.794Y62.860I0.000J-1.587
G2X42.397Y62.562I-0.388J-1.539
G1X42.488Y62.507
X42.717Y62.400
X42.867Y62.325
X43.017Y62.250
X43.168Y62.175
X43.318Y62.100
X43.362Y62.080
X43.452Y62.073
X43.729Y62.140
X43.874Y62.184
X44.255Y62.290
G2X44.788Y62.382I0.533J-1.495
G1X45.765
X46.063Y62.354
X46.184Y62.480
X46.259Y62.555
X46.334Y62.630
X46.409Y62.706
X46.484Y62.781
X46.507Y62.805
Y63.124
G2X46.583Y63.608I1.588J0.000
G2X46.789Y64.359I1.587J-0.033
G1X47.004Y64.716
G2X47.311Y65.110I1.391J-0.765
G1X47.386Y65.186
X47.461Y65.261
X47.472Y65.272
G2X47.852Y65.715I1.374J-0.796
G2X47.616Y66.098I1.219J1.017
G1X47.541Y66.248
X47.466Y66.398
G2X47.259Y67.182I1.380J0.784
G1Y67.408
G2X47.466Y68.192I1.588J0.000
G1X47.541Y68.342
X47.756Y68.698
X47.906Y68.924
X48.056Y69.149
X48.245Y69.421
X48.284Y69.524
X48.359Y69.749
X48.434Y69.975
X48.489Y70.151
X48.434Y70.326
X48.328Y70.707
G2X48.236Y71.240I1.495J0.533
G1Y71.917
G2X48.443Y72.701I1.587J0.000
G1X48.657Y73.057
X48.900Y73.388
G2X49.190Y73.752I1.374J-0.796
G1X49.265Y73.828
X49.340Y73.903
X49.415Y73.978
X49.490Y74.053
X49.525Y74.089
X49.530Y74.103
G2X49.714Y74.643I1.570J-0.233
G1X49.864Y75.019
X49.937Y75.235
X50.012Y75.461
X50.171Y75.857
G2X50.542Y76.383I1.455J-0.634
G2X50.906Y76.672I1.159J-1.084
G1X51.238Y76.915
X51.594Y77.129
G2X52.378Y77.337I0.784J-1.380
G1X52.421
G2X52.871Y77.411I0.483J-1.512
G2X53.355Y77.487I0.484J-1.512
G1X53.430
G2X53.913Y77.412I0.000J-1.588
G1X53.956
G2X54.439Y77.337I0.000J-1.588
G1X55.202
G2X55.685Y77.412I0.483J-1.512
G1X56.099
X56.028Y77.450
X55.877Y77.525
X55.727Y77.600
X55.371Y77.815
X55.351Y77.826
X55.201Y77.901
X54.845Y78.115
X54.825Y78.126
G2X54.300Y78.497I0.634J1.455
G2X53.993Y78.892I1.084J1.159
G1X53.843Y79.118
X53.628Y79.474
X53.553Y79.624
G2X53.346Y80.408I1.380J0.784
G1Y80.859
G2X53.553Y81.643I1.587J0.000
G2X53.833Y82.077I1.455J-0.634
G1X53.772Y82.266
X53.619Y82.651
X53.544Y82.876
G2X53.421Y83.489I1.464J0.613
G1Y84.015
G2X53.924Y85.175I1.587J0.000
G1X53.999Y85.250
X54.074Y85.325
G2X54.600Y85.696I1.159J-1.084
G1X54.750Y85.771
X54.901Y85.847
G2X55.652Y86.053I0.784J-1.380
G2X56.136Y86.129I0.484J-1.512
G1X56.254
G2X56.737Y86.204I0.483J-1.512
G1X57.338
G2X57.821Y86.129I0.000J-1.587
G1X57.864
G2X58.477Y86.006I0.000J-1.587
G1X58.862Y85.853
X59.249Y85.696
X59.399Y85.621
X59.550Y85.546
X59.689Y85.477
X59.825Y85.435
X60.075Y85.377
X60.193
G2X60.676Y85.302I0.000J-1.587
G1X60.720
G2X61.216Y85.223I0.000J-1.587
G2X61.879Y85.020I-0.121J-1.583
G1X61.924Y85.000
X61.890Y85.035
G2X61.600Y85.399I1.084J1.159
G1X61.423Y85.621
X61.138Y85.862
X61.063Y85.937
X60.988Y86.012
X60.913Y86.087
X60.838Y86.162
X60.762Y86.238
G2X60.310Y87.000I1.084J1.159
G1X60.157Y87.385
X60.082Y87.610
G2X59.959Y88.224I1.464J0.613
G1Y88.299
G2X60.077Y88.900I1.587J0.000
G1X0.058
X0.004Y88.896
X0.000Y88.842
Y0.058
X0.004Y0.004
X0.058Y0.000
X39.884
G0Z5.080
G0X63.087Y84.393
G1Z-8.000F300.0
G1X63.137Y84.355F1000.0
X63.363Y84.204
X63.382Y84.193
X63.500Y84.136
Y84.382
X63.275
X63.087Y84.393
G0Z5.080
G0X37.278Y0.001
G1Z-9.000F300.0
G1X0.040F1000.0
X0.004Y0.004
X0.000Y0.058
Y2.224
X37.807
X37.836Y2.268
X37.924Y2.410
X38.027Y2.542
X38.143Y2.662
X38.218Y2.738
X38.376Y2.885
X38.552Y3.009
X38.744Y3.109
X38.894Y3.184
X39.082Y3.275
X39.281Y3.341
X39.372Y3.387
X39.468Y3.560
X39.585Y3.721
X39.721Y3.865
X39.796Y3.940
X39.871Y4.015
X39.946Y4.090
X40.067Y4.206
X40.199Y4.309
X40.341Y4.397
X40.419Y4.446
X0.000
Y6.669
X38.912
X38.901Y6.683
X38.813Y6.825
X38.694Y6.996
X38.598Y7.182
X38.523Y7.332
X38.434Y7.515
X38.369Y7.710
X38.329Y7.912
X38.316Y8.116
Y8.492
X38.330Y8.701
X38.368Y8.891
X0.000
Y11.114
X39.527
X39.500Y11.164
X39.411Y11.348
X39.346Y11.543
X39.306Y11.745
X39.293Y11.949
Y12.399
X39.312Y12.644
X39.368Y12.883
X39.385Y13.078
X39.425Y13.272
X39.447Y13.336
X0.000
Y15.559
X41.251
X41.299Y15.583
X41.449Y15.658
X41.633Y15.748
X41.828Y15.813
X42.030Y15.852
X42.233Y15.866
X42.609
X42.854Y15.847
X43.093Y15.790
X43.297Y15.773
X43.500Y15.728
X43.697Y15.657
X43.881Y15.561
X43.885Y15.559
X49.138
G0Z5.080
G0X49.616Y17.781
G1Z-9.000F300.0
G1X0.000F1000.0
Y20.004
X51.664
X51.751Y20.145
X51.854Y20.277
X51.970Y20.397
X52.045Y20.472
X52.120Y20.548
X52.196Y20.623
X52.316Y20.739
X52.448Y20.842
X52.590Y20.930
X52.761Y21.049
X52.947Y21.144
X53.139Y21.237
X53.343Y21.303
X53.568Y21.378
X53.794Y21.454
X53.981Y21.519
X54.174Y21.560
X54.475Y21.635
X54.649Y21.686
X54.828Y21.717
X55.008Y21.727
X55.127
X55.365Y21.783
X55.609Y21.802
X56.104
X56.342Y21.859
X56.586Y21.877
X56.705
X56.927Y21.931
X57.155Y21.952
X57.334Y21.998
X57.517Y22.023
X57.703Y22.072
X57.893Y22.098
X58.079Y22.147
X58.269Y22.173
X58.492Y22.226
X0.000
Y24.449
X59.289
X59.295Y24.552
X59.335Y24.753
X59.400Y24.949
X59.489Y25.132
X59.565Y25.282
X59.640Y25.433
X59.735Y25.618
X59.854Y25.789
X59.942Y25.931
X60.045Y26.063
X60.161Y26.184
X60.236Y26.259
X60.394Y26.406
X60.571Y26.531
X60.762Y26.630
X60.845Y26.671
X0.000
Y28.894
X63.500
Y30.265
X63.277Y30.216
X63.049Y30.200
X62.749
X62.568Y30.210
X62.389Y30.241
X62.215Y30.292
X62.022Y30.334
X61.835Y30.398
X61.631Y30.465
X61.438Y30.558
X61.288Y30.633
X61.080Y30.742
X60.888Y30.884
X60.718Y31.054
X60.672Y31.116
X0.000
Y33.339
X55.872
X55.803Y33.409
X55.728Y33.484
X55.580Y33.641
X55.456Y33.818
X55.356Y34.009
X55.267Y34.193
X55.202Y34.388
X55.162Y34.590
X55.149Y34.793
Y35.019
X55.163Y35.228
X55.204Y35.434
X55.248Y35.561
X0.000
Y37.784
X51.288
X51.143Y37.917
X51.028Y38.038
X50.925Y38.170
X50.837Y38.312
X50.718Y38.483
X50.622Y38.669
X50.611Y38.688
X50.492Y38.859
X50.397Y39.044
X50.304Y39.237
X50.238Y39.441
X50.181Y39.600
X50.141Y39.765
X50.119Y39.933
X50.098Y40.006
X0.000
Y42.229
X45.726
X45.662Y42.351
X45.587Y42.501
X45.512Y42.651
X45.437Y42.802
X45.348Y42.985
X45.282Y43.180
X45.243Y43.382
X45.230Y43.586
Y44.451
X0.000
Y46.674
X43.908
X43.891Y46.758
X43.877Y46.967
Y47.043
X43.891Y47.252
X43.932Y47.458
X44.000Y47.656
X44.075Y47.881
X44.142Y48.085
X44.234Y48.278
X44.310Y48.428
X44.385Y48.578
X44.460Y48.728
X44.535Y48.879
X44.545Y48.896
X0.000
Y51.119
X44.183
X44.188Y51.206
X44.219Y51.385
X44.270Y51.559
X44.311Y51.752
X44.376Y51.939
X44.442Y52.143
X44.535Y52.336
X44.634Y52.527
X44.759Y52.704
X44.906Y52.861
X44.981Y52.936
X45.056Y53.012
X45.132Y53.087
X45.207Y53.162
X45.282Y53.237
X45.357Y53.312
X45.387Y53.341
X0.000
Y55.564
X41.587
X41.553Y55.611
X41.454Y55.802
X41.443Y55.822
X41.310Y56.016
X41.269Y56.061
X41.249Y56.068
X41.058Y56.109
X40.873Y56.172
X40.698Y56.258
X40.512Y56.354
X40.341Y56.473
X40.116Y56.623
X39.974Y56.711
X39.841Y56.814
X39.721Y56.930
X39.646Y57.005
X39.571Y57.080
X39.496Y57.155
X39.420Y57.230
X39.345Y57.306
X39.270Y57.381
X39.261Y57.389
X39.119Y57.460
X38.981Y57.529
X38.764Y57.602
X38.561Y57.668
X38.368Y57.761
X38.318Y57.786
X0.000
Y60.009
X36.600
X36.588Y60.193
Y60.419
X36.601Y60.623
X36.640Y60.824
X36.706Y61.020
X36.795Y61.203
X36.870Y61.353
X36.945Y61.504
X37.020Y61.654
X37.095Y61.804
X37.195Y61.996
X37.320Y62.172
X37.375Y62.231
X0.000
Y64.454
X40.236
X40.400Y64.509
X40.602Y64.548
X40.805Y64.561
X41.331
X41.540Y64.548
X41.747Y64.506
X41.899Y64.454
X45.486
G0Z5.080
G0X45.756Y66.676
G1Z-9.000F300.0
G1X0.000F1000.0
Y68.899
X46.354
X46.438Y69.059
X46.563Y69.236
X46.710Y69.394
X46.785Y69.469
X46.860Y69.544
X46.935Y69.619
X47.010Y69.694
X47.085Y69.770
X47.161Y69.845
X47.169Y69.853
X47.240Y69.995
X47.297Y70.113
X47.240Y70.231
X47.151Y70.414
X47.086Y70.609
X47.046Y70.811
X47.033Y71.015
Y71.121
X0.000
Y73.344
X47.376
X47.402Y73.397
X47.530Y73.583
X47.618Y73.725
X47.721Y73.857
X47.837Y73.978
X47.912Y74.053
X47.987Y74.128
X48.062Y74.203
X48.183Y74.319
X48.315Y74.422
X48.457Y74.510
X48.652Y74.643
X48.664Y74.654
X48.692Y74.684
X48.723Y74.885
X48.686Y75.223
Y75.566
X0.000
Y77.789
X50.511
X50.575Y77.820
X50.770Y77.885
X50.972Y77.925
X51.176Y77.938
X51.294
X51.533Y77.994
X51.777Y78.013
X53.493
X53.247Y78.126
X53.097Y78.201
X52.947Y78.276
X52.755Y78.376
X52.579Y78.501
X52.421Y78.648
X52.346Y78.723
X52.271Y78.798
X52.196Y78.873
X52.120Y78.948
X52.045Y79.023
X51.970Y79.099
X51.895Y79.174
X51.820Y79.249
X51.745Y79.324
X51.591Y79.489
X51.462Y79.677
X51.360Y79.881
X51.317Y80.011
X0.000
Y82.234
X51.414
X51.524Y82.389
X51.670Y82.545
X51.745Y82.620
X51.820Y82.695
X51.974Y82.839
X52.145Y82.961
X52.061Y83.179
X52.010Y83.407
X51.993Y83.640
Y84.091
X52.003Y84.271
X52.034Y84.450
X52.036Y84.456
X0.000
Y86.678
X54.308
X54.475Y86.713
X54.649Y86.764
X54.828Y86.795
X55.008Y86.805
X55.352
X55.591Y86.862
X55.835Y86.880
X57.413
X57.622Y86.867
X57.828Y86.825
X58.026Y86.757
X58.172Y86.713
X58.338Y86.678
X58.605
G0Z5.080
G0X57.995Y88.899
G1Z-9.000F300.0
G1X0.040F1000.0
G0Z5.080
G0X0.000Y0.058
G1Z-9.000F300.0
G1X0.004Y0.004F1000.0
X0.058Y0.000
X37.279
G2X37.189Y0.526I1.498J0.526
G1Y0.751
G2X37.396Y1.536I1.587J0.000
G1X37.471Y1.686
X37.686Y2.042
X37.836Y2.268
G2X38.143Y2.662I1.391J-0.765
G1X38.218Y2.738
G2X38.744Y3.109I1.159J-1.084
G1X38.894Y3.184
X39.281Y3.341
X39.372Y3.387
G2X39.721Y3.865I1.434J-0.682
G1X39.796Y3.940
X39.871Y4.015
X39.946Y4.090
G2X40.341Y4.397I1.159J-1.084
G1X40.629Y4.580
X40.477Y4.852
G2X40.287Y5.403I1.380J0.784
G1X40.279Y5.427
X40.257Y5.452
X40.041Y5.598
G2X39.646Y5.904I0.765J1.391
G1X39.571Y5.980
X39.496Y6.055
X39.420Y6.130
X39.345Y6.205
X39.270Y6.280
X39.195Y6.355
X39.120Y6.430
G2X38.813Y6.825I1.084J1.159
G1X38.598Y7.182
X38.523Y7.332
G2X38.316Y8.116I1.380J0.784
G1Y8.492
G2X38.439Y9.105I1.588J0.000
G1X38.514Y9.330
X38.674Y9.727
G2X39.045Y10.252I1.455J-0.634
G1X39.120Y10.328
X39.195Y10.403
X39.270Y10.478
X39.345Y10.553
X39.420Y10.628
X39.496Y10.703
X39.504Y10.712
X39.575Y10.854
X39.618Y10.944
X39.500Y11.164
G2X39.293Y11.949I1.380J0.784
G1Y12.399
G2X39.368Y12.883I1.588J0.000
G2X39.575Y13.634I1.587J-0.033
G1X39.650Y13.785
X39.726Y13.935
X39.940Y14.291
G2X40.247Y14.686I1.391J-0.765
G1X40.322Y14.761
X40.397Y14.836
X40.472Y14.912
X40.548Y14.987
X40.623Y15.062
X40.698Y15.137
X40.773Y15.212
G2X41.299Y15.583I1.159J-1.084
G1X41.449Y15.658
G2X42.233Y15.866I0.784J-1.380
G1X42.609
G2X43.093Y15.790I0.000J-1.588
G2X44.050Y15.444I-0.033J-1.587
G2X44.445Y15.137I-0.765J-1.391
G1X44.520Y15.062
X44.660Y14.913
X44.984Y14.790
X45.014Y14.785
X45.314Y14.814
X45.583
G2X46.066Y14.889I0.483J-1.512
G1X46.141
G2X46.674Y14.796I0.000J-1.588
G2X47.226Y14.606I-0.233J-1.570
G1X47.376Y14.531
X47.732Y14.317
G2X48.127Y14.010I-0.765J-1.391
G1X48.358Y13.740
X48.577Y13.686
X48.846
X49.201Y13.646
X49.265Y13.709
X49.340Y13.784
X49.395Y13.840
G2X49.230Y14.346I1.405J0.739
G2X49.137Y14.879I1.495J0.533
G1Y15.556
G2X49.261Y16.169I1.588J0.000
G1X49.288Y16.264
Y16.608
G2X49.411Y17.221I1.587J0.000
G1X49.486Y17.446
X49.645Y17.843
G2X50.016Y18.368I1.455J-0.634
G1X50.091Y18.444
X50.167Y18.519
X50.242Y18.594
G2X50.767Y18.965I1.159J-1.084
G1X50.996Y19.072
X51.170Y19.168
X51.223Y19.270
X51.298Y19.421
X51.513Y19.777
X51.663Y20.003
G2X51.970Y20.397I1.391J-0.765
G1X52.045Y20.472
X52.120Y20.548
X52.196Y20.623
G2X52.590Y20.930I1.159J-1.084
G1X52.947Y21.144
X53.343Y21.303
X53.568Y21.378
X53.794Y21.454
X54.174Y21.560
X54.475Y21.635
G2X55.008Y21.727I0.533J-1.495
G1X55.127
G2X55.609Y21.802I0.483J-1.512
G1X56.104
G2X56.586Y21.877I0.483J-1.512
G1X56.705
G2X57.155Y21.952I0.483J-1.512
G1X57.517Y22.023
X57.893Y22.098
X58.269Y22.173
X58.533Y22.236
X58.678Y22.280
X58.904Y22.355
X59.129Y22.431
X59.291Y22.488
G2X59.406Y22.932I1.578J-0.169
G1X59.434Y23.033
X59.375Y23.288
G2X59.282Y23.822I1.495J0.533
G1Y24.348
G2X59.489Y25.132I1.588J0.000
G1X59.565Y25.282
X59.640Y25.433
X59.854Y25.789
G2X60.161Y26.184I1.391J-0.765
G1X60.236Y26.259
G2X60.762Y26.630I1.159J-1.084
G1X60.912Y26.705
X61.063Y26.780
X61.450Y26.937
X61.589Y27.006
X61.739Y27.081
X61.889Y27.156
X62.040Y27.231
X62.059Y27.242
X62.415Y27.457
G2X63.199Y27.664I0.784J-1.380
G1X63.500
Y30.265
G2X63.049Y30.200I-0.451J1.522
G1X62.749
G2X62.215Y30.292I0.000J1.588
G1X61.835Y30.398
X61.438Y30.558
X61.288Y30.633
G2X60.466Y31.454I0.634J1.455
G1X60.307Y31.853
X60.300
G2X59.818Y31.778I-0.483J1.512
G1X59.442
G2X58.959Y31.853I0.000J1.588
G1X58.766
G2X58.152Y31.977I0.000J1.587
G1X58.007Y32.021
G2X57.456Y32.211I0.233J1.570
G1X57.305Y32.286
X57.155Y32.361
X57.005Y32.436
X56.854Y32.511
G2X56.329Y32.883I0.634J1.455
G1X56.254Y32.958
X56.178Y33.033
X56.103Y33.108
X56.028Y33.183
X55.953Y33.258
X55.878Y33.333
X55.803Y33.409
X55.728Y33.484
G2X55.356Y34.009I1.084J1.159
G2X55.149Y34.793I1.380J0.784
G1Y35.019
G2X55.272Y35.632I1.588J0.000
G1X55.431Y36.028
X55.507Y36.179
X55.511Y36.188
X55.126Y36.344
X54.976Y36.419
X54.619Y36.634
X54.450Y36.741
G2X53.956Y36.663I-0.493J1.509
G1X53.731
G2X53.197Y36.755I0.000J1.588
G1X52.817Y36.861
X52.591Y36.936
G2X51.883Y37.327I0.388J1.539
G2X51.519Y37.617I0.796J1.374
G1X51.507Y37.628
G2X51.143Y37.917I0.796J1.374
G2X50.837Y38.312I1.084J1.159
G1X50.622Y38.669
X50.611Y38.688
X50.397Y39.044
X50.238Y39.441
G2X50.119Y39.933I1.464J0.613
G1X50.087Y40.042
X50.012Y40.267
X49.962Y40.405
X49.795Y40.698
X49.772Y40.740
X49.555Y40.721
G2X49.072Y40.646I-0.484J1.512
G1X48.546
G2X47.932Y40.769I0.000J1.587
G1X47.787Y40.813
G2X47.235Y41.003I0.233J1.570
G1X47.085Y41.078
X46.729Y41.293
X46.709Y41.304
G2X46.184Y41.675I0.634J1.455
G1X46.109Y41.750
X46.033Y41.825
G2X45.662Y42.351I1.084J1.159
G1X45.587Y42.501
X45.512Y42.651
X45.437Y42.802
G2X45.230Y43.586I1.380J0.784
G1Y44.488
X45.232Y44.579
X45.207Y44.606
X45.132Y44.681
X45.056Y44.756
X44.981Y44.831
G2X44.674Y45.226I1.084J1.159
G1X44.542Y45.420
X44.299Y45.752
G2X44.000Y46.354I1.241J0.990
G2X43.877Y46.967I1.464J0.613
G1Y47.043
G2X44.000Y47.656I1.588J0.000
G1X44.075Y47.881
X44.234Y48.278
X44.310Y48.428
X44.385Y48.578
X44.460Y48.728
X44.535Y48.879
X44.701Y49.171
X44.712Y49.205
X44.685Y49.264
X44.610Y49.415
X44.599Y49.434
X44.385Y49.790
G2X44.178Y50.575I1.380J0.784
G1Y51.025
G2X44.270Y51.559I1.588J0.000
G1X44.376Y51.939
X44.535Y52.336
G2X44.906Y52.861I1.455J-0.634
G1X44.981Y52.936
X45.056Y53.012
X45.132Y53.087
X45.207Y53.162
X45.282Y53.237
X45.357Y53.312
G2X45.752Y53.619I1.159J-1.084
G1X46.108Y53.834
X46.258Y53.909
X46.409Y53.984
X46.805Y54.143
X47.224Y54.254
X47.084Y54.611
X46.933Y54.987
X46.919Y55.013
G2X46.449Y54.866I-0.703J1.423
G1X46.148Y54.791
X46.003Y54.746
X45.777Y54.671
X45.397Y54.565
X45.096Y54.490
G2X44.563Y54.398I-0.533J1.495
G1X43.511
G2X42.897Y54.521I0.000J1.588
G2X42.126Y54.976I0.388J1.539
G1X42.051Y55.051
X41.975Y55.126
X41.900Y55.201
X41.825Y55.277
G2X41.454Y55.802I1.084J1.159
G1X41.443Y55.822
X41.310Y56.016
X41.269Y56.061
X41.249Y56.068
G2X40.698Y56.258I0.233J1.570
G1X40.341Y56.473
X40.116Y56.623
G2X39.721Y56.930I0.765J1.391
G1X39.646Y57.005
X39.571Y57.080
X39.496Y57.155
X39.420Y57.230
X39.345Y57.306
X39.270Y57.381
X39.261Y57.389
X39.119Y57.460
X38.981Y57.529
X38.764Y57.602
X38.368Y57.761
X38.218Y57.836
X38.067Y57.911
G2X37.542Y58.283I0.634J1.455
G1X37.467Y58.358
G2X37.095Y58.883I1.084J1.159
G1X37.020Y59.034
X37.009Y59.053
X36.795Y59.409
G2X36.588Y60.193I1.380J0.784
G1Y60.419
G2X36.795Y61.203I1.588J0.000
G1X36.870Y61.353
X36.945Y61.504
X37.020Y61.654
X37.095Y61.804
G2X37.467Y62.330I1.455J-0.634
G1X37.542Y62.405
X37.617Y62.480
X37.692Y62.555
G2X38.087Y62.862I1.159J-1.084
G1X38.312Y63.013
X38.507Y63.145
X38.519Y63.157
X38.594Y63.232
X38.605Y63.243
G2X38.894Y63.607I1.374J-0.796
G1X38.970Y63.683
G2X39.495Y64.054I1.159J-1.084
G1X39.515Y64.065
X39.871Y64.279
X40.021Y64.354
G2X40.805Y64.561I0.784J-1.380
G1X41.331
G2X41.945Y64.438I0.000J-1.587
G1X42.170Y64.363
X42.566Y64.204
G2X43.092Y63.833I-0.634J-1.455
G1X43.167Y63.758
X43.242Y63.683
X43.317Y63.607
X43.326Y63.599
X43.468Y63.528
X43.618Y63.453
X43.769Y63.377
X43.908Y63.309
X44.185Y63.209
X44.262
X44.337Y63.207
X44.412Y63.209
X45.305
Y63.725
G2X45.651Y64.716I1.588J0.000
G1X45.662Y64.735
X45.877Y65.091
X45.954Y65.217
G2X45.831Y65.830I1.465J0.613
G1Y66.174
G2X45.756Y66.656I1.512J0.483
G1Y66.731
G2X45.835Y67.228I1.588J0.000
G1X45.923Y67.641
X46.029Y68.021
X46.073Y68.167
G2X46.263Y68.718I1.570J-0.233
G1X46.339Y68.868
G2X46.710Y69.394I1.455J-0.634
G1X46.785Y69.469
X46.860Y69.544
X46.935Y69.619
X47.010Y69.694
X47.085Y69.770
X47.161Y69.845
X47.169Y69.853
X47.240Y69.995
X47.297Y70.113
X47.240Y70.231
G2X47.033Y71.015I1.380J0.784
G1Y71.133
G2X46.958Y71.616I1.512J0.483
G1Y71.841
G2X47.081Y72.455I1.588J0.000
G1X47.126Y72.600
X47.232Y72.981
G2X47.530Y73.583I1.539J-0.388
G2X47.837Y73.978I1.391J-0.765
G1X47.912Y74.053
X47.987Y74.128
X48.062Y74.203
G2X48.457Y74.510I1.159J-1.084
G1X48.652Y74.643
X48.664Y74.654
X48.692Y74.684
X48.723Y74.885
X48.686Y75.223
Y75.749
G2X49.190Y76.909I1.588J0.000
G1X49.265Y76.984
X49.340Y77.059
G2X49.735Y77.366I1.159J-1.084
G1X50.091Y77.580
X50.241Y77.655
X50.392Y77.731
G2X51.176Y77.938I0.784J-1.380
G1X51.294
G2X51.777Y78.013I0.483J-1.512
G1X53.493
X53.247Y78.126
X53.097Y78.201
X52.947Y78.276
G2X52.421Y78.648I0.634J1.455
G1X52.346Y78.723
X52.271Y78.798
X52.196Y78.873
X52.120Y78.948
X52.045Y79.023
X51.970Y79.099
X51.895Y79.174
X51.820Y79.249
X51.745Y79.324
G2X51.290Y80.096I1.084J1.159
G2X51.166Y80.709I1.464J0.613
G1Y81.385
G2X51.670Y82.545I1.588J0.000
G1X51.745Y82.620
X51.820Y82.695
X52.145Y82.961
G2X51.993Y83.640I1.435J0.678
G1Y84.091
G2X52.085Y84.624I1.588J0.000
G1X52.191Y85.004
G2X52.646Y85.776I1.539J-0.388
G1X52.722Y85.851
X52.797Y85.926
G2X53.322Y86.298I1.159J-1.084
G1X53.473Y86.373
X53.869Y86.532
X54.094Y86.607
X54.475Y86.713
G2X55.008Y86.805I0.533J-1.495
G1X55.352
G2X55.835Y86.880I0.483J-1.512
G1X57.413
G2X58.026Y86.757I0.000J-1.588
G1X58.172Y86.713
X58.552Y86.607
X58.714Y86.557
X58.444Y86.902
X58.433Y86.914
G2X57.930Y88.073I1.084J1.159
G1Y88.449
G2X57.995Y88.900I1.587J0.000
G1X0.058
X0.004Y88.896
X0.000Y88.842
Y0.058
G0Z5.080
G0X34.949Y0.001
G1Z-10.000F300.0
G1X0.040F1000.0
X0.004Y0.004
X0.000Y0.058
Y2.224
X34.973
X35.067Y2.356
X35.212Y2.512
X35.287Y2.587
X35.458Y2.745
X35.654Y2.878
X35.869Y2.982
X36.095Y3.051
X36.326Y3.086
X36.585Y3.148
X36.645Y3.264
X36.744Y3.455
X36.869Y3.632
X37.016Y3.790
X37.091Y3.865
X37.166Y3.940
X37.241Y4.015
X37.381Y4.148
X37.537Y4.263
X37.705Y4.358
X37.738Y4.446
X0.000
Y6.669
X36.641
X36.572Y6.799
X36.499Y7.000
X36.455Y7.207
X36.404Y7.380
X36.373Y7.559
X36.362Y7.740
Y8.567
X36.371Y8.734
X36.337Y8.846
X36.315Y8.891
X0.000
Y11.114
X35.941
X35.973Y11.261
X36.046Y11.462
X36.146Y11.652
X36.270Y11.827
X36.414Y11.981
X36.490Y12.056
X36.647Y12.203
X36.824Y12.328
X37.015Y12.427
X37.199Y12.516
X37.394Y12.582
X37.596Y12.621
X37.799Y12.634
X37.875
X37.957Y12.632
X38.033Y12.933
X38.074Y13.126
X38.139Y13.313
X38.146Y13.336
X0.000
Y15.559
X39.302
X39.424Y15.731
X39.571Y15.888
X39.646Y15.964
X39.721Y16.039
X39.796Y16.114
X39.954Y16.261
X40.131Y16.386
X40.322Y16.485
X40.472Y16.560
X40.622Y16.635
X40.806Y16.725
X41.001Y16.790
X41.203Y16.829
X41.407Y16.843
X41.450
X41.672Y16.896
X41.900Y16.917
X42.151Y16.976
X42.324Y17.027
X42.503Y17.058
X42.684Y17.068
X43.060
X43.305Y17.049
X43.543Y16.992
X43.741Y16.976
X43.936Y16.935
X44.124Y16.870
X44.327Y16.803
X44.520Y16.711
X44.711Y16.611
X44.888Y16.486
X45.046Y16.339
X45.162Y16.219
X45.265Y16.087
X45.353Y15.945
X45.359Y15.937
X45.464Y15.941
X45.765
X46.009Y15.922
X46.248Y15.866
X46.291
X46.500Y15.852
X46.706Y15.810
X46.904Y15.742
X47.102Y15.679
X47.289Y15.590
X47.383Y15.559
X47.865
G0Z5.080
G0X47.894Y17.781
G1Z-10.000F300.0
G1X0.000F1000.0
Y20.004
X50.201
X50.229Y20.190
X50.297Y20.413
X50.397Y20.623
X50.492Y20.808
X50.611Y20.979
X50.699Y21.121
X50.802Y21.254
X50.918Y21.374
X50.993Y21.449
X51.068Y21.525
X51.143Y21.600
X51.219Y21.675
X51.294Y21.750
X51.465Y21.908
X51.661Y22.041
X51.875Y22.144
X52.102Y22.214
X52.185Y22.226
X0.000
Y24.449
X58.242
X58.244Y24.482
X58.286Y24.688
X58.354Y24.886
X58.429Y25.112
X58.504Y25.337
X58.574Y25.551
X58.676Y25.756
X58.805Y25.943
X58.959Y26.109
X59.034Y26.184
X59.109Y26.259
X59.184Y26.334
X59.356Y26.492
X59.548Y26.624
X59.605Y26.671
X0.000
Y28.894
X63.500
Y29.589
X63.277Y29.540
X63.049Y29.524
X62.147
X61.903Y29.543
X61.664Y29.599
X61.468Y29.615
X61.275Y29.656
X61.088Y29.720
X60.912Y29.806
X60.762Y29.881
X60.571Y29.980
X60.394Y30.105
X60.236Y30.252
X60.161Y30.328
X60.086Y30.403
X60.011Y30.478
X59.936Y30.553
X59.861Y30.628
X59.785Y30.703
X59.710Y30.778
X59.635Y30.854
X59.476Y31.027
X59.141
X58.897Y31.046
X58.659Y31.102
X58.615
X58.435Y31.112
X58.411Y31.116
X0.000
Y33.339
X54.452
X54.379Y33.483
X54.304Y33.634
X54.229Y33.784
X54.154Y33.934
X54.065Y34.118
X53.999Y34.313
X53.960Y34.515
X53.947Y34.718
Y35.169
X53.974Y35.461
X53.843Y35.472
X53.688Y35.461
X53.450Y35.404
X53.205Y35.385
X52.453
X52.250Y35.398
X52.048Y35.438
X51.853Y35.503
X51.733Y35.561
X0.000
Y37.784
X49.849
X49.791Y37.842
X49.644Y38.000
X49.519Y38.177
X49.420Y38.368
X49.334Y38.543
X49.270Y38.728
X49.230Y38.919
X49.179Y39.093
X49.148Y39.272
X49.137Y39.453
Y39.496
X49.104Y39.615
X48.846Y39.594
X48.470
X48.226Y39.613
X47.987Y39.669
X47.789Y39.686
X47.594Y39.727
X47.406Y39.792
X47.181Y39.867
X46.977Y39.933
X46.826Y40.006
X0.000
Y42.229
X43.437
X43.426Y42.383
Y43.135
X43.440Y43.344
X43.481Y43.550
X43.549Y43.748
X43.620Y43.962
X43.720Y44.165
X43.848Y44.350
X43.859Y44.370
X43.901Y44.451
X0.000
Y46.674
X42.480
X42.463Y46.758
X42.449Y46.967
Y47.043
X42.463Y47.252
X42.504Y47.458
X42.572Y47.656
X42.648Y47.881
X42.723Y48.107
X42.789Y48.310
X42.882Y48.503
X42.981Y48.694
X43.106Y48.871
X43.129Y48.896
X0.000
Y51.119
X42.988
X42.994Y51.195
X43.051Y51.434
X43.067Y51.632
X43.109Y51.827
X43.174Y52.015
X43.240Y52.218
X43.333Y52.411
X43.417Y52.576
X43.520Y52.731
X43.640Y52.873
X43.771Y53.066
X43.929Y53.237
X44.004Y53.312
X44.033Y53.341
X43.976
G0Z5.080
G0X42.011
G1Z-10.000F300.0
G1X0.000F1000.0
Y55.564
X39.509
X39.496Y55.577
X39.420Y55.652
X39.345Y55.728
X39.270Y55.803
X39.195Y55.878
X39.120Y55.953
X39.045Y56.028
X38.970Y56.103
X38.894Y56.178
X38.819Y56.254
X38.807Y56.265
X38.652Y56.367
X38.510Y56.487
X38.329Y56.582
X38.162Y56.698
X38.143Y56.709
X37.992Y56.784
X37.842Y56.859
X37.657Y56.955
X37.486Y57.074
X37.478Y57.078
X37.267Y57.149
X37.067Y57.248
X36.884Y57.374
X36.742Y57.463
X36.610Y57.565
X36.490Y57.681
X36.414Y57.756
X36.385Y57.786
X0.000
Y60.009
X35.536
Y60.011
X35.479Y60.250
X35.460Y60.494
Y61.020
X35.474Y61.224
X35.513Y61.426
X35.578Y61.621
X35.668Y61.804
X35.743Y61.955
X35.842Y62.146
X35.902Y62.231
X0.000
Y64.454
X38.361
X38.436Y64.563
X38.594Y64.735
X38.605Y64.746
X38.736Y64.939
X38.894Y65.110
X39.015Y65.226
X39.147Y65.329
X39.289Y65.417
X39.463Y65.538
X39.654Y65.636
X39.858Y65.707
X40.068Y65.750
X40.279Y65.764
X41.106
X41.274Y65.755
X41.440Y65.728
X41.603Y65.684
X41.771Y65.662
X41.936Y65.622
X42.095Y65.565
X42.241Y65.521
X42.434Y65.480
X42.621Y65.415
X42.825Y65.349
X43.017Y65.256
X43.168Y65.181
X43.353Y65.085
X43.524Y64.966
X43.666Y64.878
X43.798Y64.775
X43.919Y64.659
X43.927Y64.651
X44.058Y64.586
X44.280Y64.511
X44.301Y64.564
X44.367Y64.768
X44.460Y64.960
X44.549Y65.135
X44.495Y65.371
X44.444Y65.545
X44.413Y65.724
X44.403Y65.905
Y66.205
X44.417Y66.414
X44.458Y66.621
X44.477Y66.676
X0.000
Y68.899
X45.190
X45.205Y68.932
X45.278Y69.148
X45.348Y69.362
X45.449Y69.565
X45.576Y69.750
X45.680Y69.915
X45.550Y70.092
X45.444Y70.290
X45.367Y70.501
X45.320Y70.720
X45.305Y70.940
Y71.121
X0.000
Y73.344
X46.052
X46.073Y73.427
X46.114Y73.618
X46.178Y73.803
X46.263Y73.978
X46.363Y74.169
X46.488Y74.346
X46.635Y74.504
X46.710Y74.579
X46.785Y74.654
X46.860Y74.729
X46.935Y74.804
X47.010Y74.880
X47.085Y74.955
X47.145Y75.015
X47.087Y75.188
X47.050Y75.366
X46.999Y75.540
X46.995Y75.566
X0.000
Y77.789
X47.770
X47.789Y77.804
X47.931Y77.892
X48.114Y78.018
X48.314Y78.118
X48.524Y78.188
X48.707Y78.275
X48.900Y78.338
X49.072Y78.421
X49.253Y78.483
X49.440Y78.522
X49.614Y78.573
X49.793Y78.604
X49.973Y78.614
X50.017
X50.255Y78.670
X50.499Y78.689
X50.650
X50.617Y78.723
X50.459Y78.894
X50.328Y79.087
X50.317Y79.099
X50.242Y79.174
X50.167Y79.249
X50.091Y79.324
X50.016Y79.399
X49.941Y79.474
X49.866Y79.549
X49.791Y79.625
X49.716Y79.700
X49.641Y79.775
X49.565Y79.850
X49.490Y79.925
X49.410Y80.011
X0.000
Y82.234
X48.768
X48.775Y82.346
X48.817Y82.552
X48.885Y82.750
X48.949Y82.947
X49.037Y83.135
X49.108Y83.347
X49.210Y83.548
X49.338Y83.734
X49.490Y83.897
X49.565Y83.972
X49.641Y84.048
X49.716Y84.123
X49.791Y84.198
X49.866Y84.273
X49.941Y84.348
X50.016Y84.423
X50.049Y84.456
X0.000
Y86.678
X52.434
X52.571Y86.748
X52.590Y86.759
X52.761Y86.878
X52.947Y86.974
X53.139Y87.067
X53.343Y87.133
X53.568Y87.208
X53.794Y87.283
X53.981Y87.348
X54.176Y87.390
X54.374Y87.406
X54.613Y87.463
X54.858Y87.482
X54.901
X55.140Y87.538
X55.384Y87.557
X55.503
X55.725Y87.610
X55.952Y87.632
X56.134Y87.678
X56.320Y87.703
X56.287Y87.887
X56.276Y88.073
Y88.449
X56.293Y88.677
X56.342Y88.899
X0.040
G0Z5.080
G0X34.949Y0.000
G1Z-10.000F300.0
G2X34.861Y0.449I1.498J0.526F1000.0
G2X34.709Y1.127I1.435J0.678
G1Y1.353
G2X35.212Y2.512I1.587J0.000
G1X35.287Y2.587
G2X36.326Y3.086I1.159J-1.084
G1X36.585Y3.148
X36.645Y3.264
G2X37.016Y3.790I1.455J-0.634
G1X37.091Y3.865
X37.166Y3.940
X37.241Y4.015
G2X37.705Y4.358I1.159J-1.084
G2X38.143Y5.067I1.522J-0.450
G1X38.218Y5.142
X38.239Y5.164
X38.162Y5.222
X37.831Y5.465
G2X37.467Y5.754I0.796J1.374
G1X37.391Y5.829
X37.316Y5.904
X37.241Y5.980
X37.166Y6.055
X37.091Y6.130
X37.016Y6.205
X36.941Y6.280
G2X36.455Y7.207I1.084J1.159
G2X36.362Y7.740I1.495J0.533
G1Y8.567
X36.371Y8.734
X36.337Y8.846
X36.269Y8.985
X36.258Y9.005
G2X35.959Y9.607I1.241J0.990
G2X35.836Y10.220I1.464J0.613
G1Y10.521
G2X35.928Y11.054I1.588J0.000
G2X36.414Y11.981I1.570J-0.233
G1X36.490Y12.056
G2X37.015Y12.427I1.159J-1.084
G2X37.799Y12.634I0.784J-1.380
G1X37.875
X37.957Y12.632
X38.033Y12.933
X38.139Y13.313
X38.298Y13.710
X38.512Y14.066
X38.523Y14.085
X38.598Y14.236
X38.813Y14.592
X38.824Y14.611
X38.899Y14.762
X38.974Y14.912
X39.049Y15.062
X39.124Y15.213
X39.200Y15.363
G2X39.571Y15.888I1.455J-0.634
G1X39.646Y15.964
X39.721Y16.039
X39.796Y16.114
G2X40.322Y16.485I1.159J-1.084
G1X40.472Y16.560
X40.622Y16.635
G2X41.407Y16.843I0.784J-1.380
G1X41.450
G2X41.900Y16.917I0.483J-1.512
G1X42.151Y16.976
G2X42.684Y17.068I0.533J-1.495
G1X43.060
G2X43.543Y16.992I0.000J-1.588
G2X44.124Y16.870I-0.033J-1.587
G1X44.520Y16.711
G2X45.046Y16.339I-0.634J-1.455
G2X45.353Y15.945I-1.084J-1.159
G1X45.359Y15.937
X45.464Y15.941
X45.765
G2X46.248Y15.866I0.000J-1.588
G1X46.291
G2X46.904Y15.742I0.000J-1.588
G1X47.289Y15.590
X47.676Y15.433
X47.724Y15.411
X47.860Y15.484
X47.876Y15.706
X47.860Y15.931
Y15.975
G2X47.785Y16.457I1.512J0.483
G1Y17.209
G2X47.908Y17.822I1.588J0.000
G2X48.206Y18.424I1.539J-0.388
G1X48.217Y18.444
G2X48.588Y18.970I1.455J-0.634
G1X48.664Y19.045
X48.739Y19.120
X48.814Y19.195
G2X49.340Y19.566I1.159J-1.084
G1X49.490Y19.641
X49.640Y19.716
X50.036Y19.875
X50.184Y19.929
X50.194Y19.960
G2X50.397Y20.623I1.583J-0.121
G1X50.611Y20.979
G2X50.918Y21.374I1.391J-0.765
G1X50.993Y21.449
X51.068Y21.525
X51.143Y21.600
X51.219Y21.675
X51.294Y21.750
G2X52.332Y22.249I1.159J-1.084
G2X52.829Y22.328I0.497J-1.508
G1X53.624
G2X54.107Y22.403I0.483J-1.512
G1X55.052
G2X55.534Y22.479I0.483J-1.512
G1X55.728
G2X56.178Y22.553I0.483J-1.512
G1X56.540Y22.624
X56.804Y22.687
X57.105Y22.762
X57.251Y22.806
X57.388Y22.857
X57.422Y22.880
X57.460Y22.953
X57.536Y23.103
G2X57.843Y23.565I1.455J-0.634
G2X58.132Y23.929I1.374J-0.796
G1X58.207Y24.004
X58.230Y24.028
Y24.273
G2X58.354Y24.886I1.587J0.000
G1X58.429Y25.112
X58.504Y25.337
G2X58.959Y26.109I1.539J-0.388
G1X59.034Y26.184
X59.109Y26.259
X59.184Y26.334
G2X59.548Y26.624I1.159J-1.084
G1X59.880Y26.866
X60.074Y26.999
G2X60.537Y27.306I1.096J-1.148
G1X60.933Y27.465
X61.158Y27.541
X61.296Y27.591
X61.580Y27.754
X61.878Y27.976
X61.890Y27.987
X61.965Y28.062
G2X62.490Y28.434I1.159J-1.084
G2X63.275Y28.641I0.784J-1.380
G1X63.500
Y29.589
G2X63.049Y29.524I-0.451J1.522
G1X62.147
G2X61.664Y29.599I0.000J1.588
G2X60.912Y29.806I0.033J1.587
G1X60.762Y29.881
G2X60.236Y30.252I0.634J1.455
G1X60.161Y30.328
X60.086Y30.403
X60.011Y30.478
X59.936Y30.553
X59.861Y30.628
X59.785Y30.703
X59.710Y30.778
X59.635Y30.854
X59.476Y31.027
X59.141
G2X58.659Y31.102I0.000J1.587
G1X58.615
G2X58.082Y31.194I0.000J1.588
G1X57.781Y31.269
X57.517Y31.332
G2X57.025Y31.451I0.121J1.583
G1X56.800Y31.526
X56.403Y31.685
X56.253Y31.760
X56.103Y31.835
G2X55.577Y32.206I0.634J1.455
G1X55.565Y32.217
G2X55.201Y32.507I0.796J1.374
G1X55.190Y32.518
G2X54.826Y32.807I0.796J1.374
G2X54.455Y33.333I1.084J1.159
G1X54.379Y33.483
X54.304Y33.634
X54.229Y33.784
X54.154Y33.934
G2X53.947Y34.718I1.380J0.784
G1Y35.169
X53.974Y35.461
X53.843Y35.472
X53.688Y35.461
G2X53.205Y35.385I-0.484J1.512
G1X52.453
G2X51.669Y35.592I0.000J1.588
G2X51.143Y35.964I0.634J1.455
G1X51.068Y36.039
X50.993Y36.114
G2X50.622Y36.640I1.084J1.159
G1X50.465Y37.027
X50.397Y37.166
X50.386Y37.185
X50.189Y37.502
X49.866Y37.767
X49.791Y37.842
G2X49.420Y38.368I1.084J1.159
G2X49.230Y38.919I1.380J0.784
G2X49.137Y39.453I1.495J0.533
G1Y39.496
X49.104Y39.615
X48.846Y39.594
X48.470
G2X47.987Y39.669I0.000J1.588
G2X47.406Y39.792I0.033J1.587
G1X47.181Y39.867
X46.785Y40.026
X46.634Y40.101
X46.484Y40.176
X46.334Y40.252
X46.128Y40.359
X45.915Y40.345
X45.765
G2X45.232Y40.437I0.000J1.588
G2X44.680Y40.627I0.233J1.570
G2X44.155Y40.999I0.634J1.455
G1X44.080Y41.074
X44.004Y41.149
X43.929Y41.224
G2X43.426Y42.383I1.084J1.159
G1Y43.135
G2X43.549Y43.748I1.588J0.000
G2X43.848Y44.350I1.539J-0.388
G1X43.859Y44.370
X43.965Y44.573
X43.854Y44.681
X43.779Y44.756
X43.704Y44.831
X43.629Y44.906
X43.554Y44.981
X43.478Y45.056
X43.403Y45.132
X43.328Y45.207
G2X43.039Y45.571I1.084J1.159
G1X43.028Y45.583
G2X42.572Y46.354I1.084J1.159
G2X42.449Y46.967I1.464J0.613
G1Y47.043
G2X42.572Y47.656I1.588J0.000
G1X42.648Y47.881
X42.723Y48.107
X42.882Y48.503
G2X43.253Y49.029I1.455J-0.634
G1X43.264Y49.040
X43.485Y49.336
X43.408Y49.490
X43.397Y49.509
G2X43.098Y50.112I1.241J0.990
G2X42.975Y50.725I1.464J0.613
G1Y50.950
G2X43.051Y51.434I1.588J0.000
G2X43.174Y52.015I1.587J-0.033
G1X43.333Y52.411
G2X43.640Y52.873I1.455J-0.634
G2X43.929Y53.237I1.374J-0.796
G1X44.004Y53.312
X44.039Y53.347
X43.994Y53.346
X43.632Y53.275
G2X43.135Y53.195I-0.497J1.508
G1X42.759
G2X42.226Y53.288I0.000J1.588
G1X41.925Y53.363
G2X40.999Y53.849I0.233J1.570
G1X40.923Y53.924
X40.848Y53.999
X40.773Y54.074
X40.698Y54.149
X40.623Y54.225
G2X40.333Y54.589I1.084J1.159
G2X40.026Y55.051I1.148J1.096
G1X39.969Y55.162
X39.646Y55.427
X39.571Y55.502
X39.496Y55.577
X39.420Y55.652
X39.345Y55.728
X39.270Y55.803
X39.195Y55.878
X39.120Y55.953
X39.045Y56.028
X38.970Y56.103
X38.894Y56.178
X38.819Y56.254
X38.807Y56.265
X38.510Y56.487
X38.162Y56.698
X38.143Y56.709
X37.992Y56.784
X37.842Y56.859
X37.486Y57.074
X37.478Y57.078
G2X36.884Y57.374I0.397J1.537
G2X36.490Y57.681I0.765J1.391
G1X36.414Y57.756
X36.339Y57.832
G2X35.968Y58.357I1.084J1.159
G1X35.957Y58.377
X35.743Y58.733
G2X35.536Y59.517I1.380J0.784
G1Y60.011
G2X35.460Y60.494I1.512J0.483
G1Y61.020
G2X35.668Y61.804I1.588J0.000
G1X35.743Y61.955
G2X36.114Y62.480I1.455J-0.634
G1X36.189Y62.555
X36.264Y62.630
X36.339Y62.706
X36.414Y62.781
X36.490Y62.856
G2X36.884Y63.163I1.159J-1.084
G1X37.241Y63.377
X37.391Y63.453
X37.541Y63.528
X37.561Y63.539
X37.770Y63.680
X37.911Y63.889
G2X38.218Y64.284I1.391J-0.765
G1X38.293Y64.359
X38.304Y64.371
G2X38.594Y64.735I1.374J-0.796
G1X38.605Y64.746
G2X38.894Y65.110I1.374J-0.796
G2X39.289Y65.417I1.159J-1.084
G2X40.279Y65.764I0.990J-1.241
G1X41.106
G2X41.603Y65.684I0.000J-1.587
G2X42.095Y65.565I-0.121J-1.583
G1X42.241Y65.521
X42.621Y65.415
X43.017Y65.256
X43.168Y65.181
X43.524Y64.966
G2X43.919Y64.659I-0.765J-1.391
G1X43.927Y64.651
X44.058Y64.586
X44.280Y64.511
X44.301Y64.564
X44.460Y64.960
X44.549Y65.135
X44.495Y65.371
G2X44.403Y65.905I1.495J0.533
G1Y66.205
G2X44.526Y66.819I1.588J0.000
G1X44.679Y67.203
X44.829Y67.579
X44.931Y67.860
X45.009Y68.280
G2X45.205Y68.932I1.583J-0.121
G1X45.278Y69.148
G2X45.576Y69.750I1.539J-0.388
G1X45.680Y69.915
G2X45.305Y70.940I1.212J1.025
G1Y71.315
G2X45.506Y72.088I1.588J0.000
G1X45.662Y72.475
X45.737Y72.626
X45.813Y72.776
X45.888Y72.926
X46.000Y73.139
X46.073Y73.427
G2X46.263Y73.978I1.570J-0.233
G2X46.635Y74.504I1.455J-0.634
G1X46.710Y74.579
X46.785Y74.654
X46.860Y74.729
X46.935Y74.804
X47.010Y74.880
X47.085Y74.955
X47.145Y75.015
X47.050Y75.366
G2X46.958Y75.899I1.495J0.533
G1Y76.350
G2X47.461Y77.510I1.588J0.000
G1X47.536Y77.585
G2X47.931Y77.892I1.159J-1.084
G2X48.524Y78.188I0.990J-1.241
G1X48.900Y78.338
G2X49.440Y78.522I0.773J-1.387
G2X49.973Y78.614I0.533J-1.495
G1X50.017
G2X50.499Y78.689I0.483J-1.512
G1X50.650
X50.617Y78.723
G2X50.328Y79.087I1.084J1.159
G1X50.317Y79.099
